!!!!SEGMENT: pl-wn--mus-iii-78-053_katski-apolinary--le-reve-d-une-jeune-chatelaine-op-8.krn
!!!cenid: 18xx:3637
!!!COM: Kątski, Apolinary
!!!COM-rismID: pe30020040
!!!CDT: 1825-1879
!!!CNT: Polish
!!!OTL: Le Rêve d'une jeune châtelaine op. 8
!!!PDT:
!!!AGN:
!!!SMS-siglum: PL-Wn
!!!SMS-shelfmark: Mus.III.78.053
!!!SMS-shelfwork: W
!!!SMS-variant:
!!!SMS-altvar:
!!!NIFC-rismSourceID:
!!!NIFC-rismChildID:
!!!NIFC-islandoraID:
!!!URL-pdf-islandora:
!!!URL-scan: https://polona.pl/item/le-reve-d-une-jeune-chatelaine-poesie-musicale-compose-pour-violon-et-transcrit-pour,NzE3MTYyMDY/0 @EN{Scan on Polona} @PL{Skany w portalu Polona}
!!!ONB-nifc:
!!!AIN: 1 piano
!!!key: a
**kern	**kern	**dynam	**fing
*part1	*part1	*part1	*
*staff2	*staff1	*	*
*I"Pianoforte	*I"Pianoforte	*	*
*I'pf	*I'pf	*	*
*Ipiano	*Ipiano	*	*
*ICklav	*ICklav	*	*
*clefF4	*clefG2	*	*
*k[]	*k[]	*	*
*a:	*a:	*	*
*M4/4	*M4/4	*	*
*met(c)	*met(c)	*	*
=1	=1	=1	=1
!	!LO:TX:a:B:t=ADAGIO SOSTENUTO	!	!
!	!LO:TX:a:t=P:problem=w źródle "La Rêve" przed pierwszym systemem, na wysokości pomiędzy pięcioliniami	!	!
!	!LO:TX:a:t=La Rêve	!	!
*	*ped	*	*
1AAA^	1r	pp	.
=2	=2	=2	=2
1AAA^	1r	.	.
=3	=3	=3	=3
(<32AAA/LLL	1r	.	.
32GGG#X/	.	.	.
32AAA/	.	.	.
32GGG#/	.	.	.
32AAA/	.	.	.
32GGG#/	.	.	.
32AAA/	.	.	.
32GGG#/JJJ	.	.	.
32AAA/LLL	.	.	.
32GGG#/	.	.	.
32AAA/	.	.	.
32GGG#/	.	.	.
32AAA/	.	.	.
32GGG#/	.	.	.
32AAA/	.	.	.
32GGG#/JJJ	.	.	.
32AAA/LLL	.	.	.
32GGG#/	.	.	.
32AAA/	.	.	.
32GGG#/	.	.	.
32AAA/	.	.	.
32GGG#/	.	.	.
32AAA/	.	.	.
32GGG#/JJJ	.	.	.
32AAA/LLL	.	.	.
32GGG#/	.	.	.
32AAA/	.	.	.
32GGG#/	.	.	.
32AAA/	.	.	.
32GGG#/	.	.	.
32AAA/	.	.	.
32GGG#/JJJ)	.	.	.
!!LO:LB:g=original
=4	=4	=4	=4
*tremolo	*	*	*
(<32AAA/LLL	1r	.	.
32GGG#X/	.	.	.
32AAA/	.	.	.
32GGG#/	.	.	.
32AAA/	.	.	.
32GGG#/	.	.	.
32AAA/	.	.	.
32GGG#/	.	.	.
32AAA/	.	.	.
32GGG#/	.	.	.
32AAA/	.	.	.
32GGG#/	.	.	.
32AAA/	.	.	.
32GGG#/	.	.	.
32AAA/	.	.	.
32GGG#X/JJJ	.	.	.
32AAA/LLL	.	.	.
32GGG#/	.	.	.
32AAA/	.	.	.
32GGG#/	.	.	.
32AAA/	.	.	.
32GGG#/	.	.	.
32AAA/	.	.	.
32GGG#/	.	.	.
32AAA/	.	.	.
*	*Xped	*	*
32GGG#/	.	.	.
32AAA/	.	.	.
32GGG#/	.	.	.
32AAA/	.	.	.
32GGG#/	.	.	.
32AAA/	.	.	.
32GGG#/JJJ)	.	.	.
*Xtremolo	*	*	*
=5	=5	=5	=5
*^	*	*	*
*	*	*tremolo	*	*
*	*	*ped	*	*
8r	[<1AAA	(<32aaLLL 32ee 32cc/	.	.
.	.	32a/	.	.
.	.	32aa 32ee 32cc/	.	.
.	.	32a/	.	.
!LO:TX:b:t=una corda.	!	!	!	!
8E/L	.	32aa 32ee 32cc/	<	.
.	.	32a/	.	.
.	.	32aa 32ee 32cc/	.	.
.	.	32a/	.	.
8D#X/	.	32aa 32ee 32cc/	.	.
.	.	32a/	.	.
.	.	32aa 32ee 32cc/	.	.
.	.	32a/	.	.
8E/J	.	32aa 32ee 32cc/	.	.
.	.	32a/	.	.
.	.	32aa 32ee 32cc/	.	.
.	.	32a/JJJ	.	.
8F/L	.	32aaLLL 32ee 32cc/	.	.
.	.	32a/	.	.
.	.	32aa 32ee 32cc/	.	.
.	.	32a/	.	.
8E/	.	32aa 32ee 32cc/	.	.
.	.	32a/	.	.
.	.	32aa 32ee 32cc/	.	.
.	.	32a/	.	.
8c/	.	32aa 32ee 32cc/	.	.
.	.	32a/	.	.
.	.	32aa 32ee 32cc/	.	.
.	.	32a/	.	.
8B/J	.	32aa 32ee 32cc/	.	.
.	.	32a/	.	.
.	.	32aa 32ee 32cc/	.	.
.	.	32a/JJJ	[	.
=6	=6	=6	=6	=6
8G#X/L	1AAA]	32aaLLL 32ee 32cc/	>	.
.	.	32a/	.	.
.	.	32aa 32ee 32cc/	.	.
.	.	32a/	.	.
8A/	.	32aa 32ee 32cc/	.	.
.	.	32a/	.	.
.	.	32aa 32ee 32cc/	.	.
.	.	32a/	.	.
8f/	.	32aa 32ee 32cc/	.	.
.	.	32a/	.	.
.	.	32aa 32ee 32cc/	.	.
.	.	32a/	.	.
8e/J	.	32aa 32ee 32cc/	.	.
.	.	32a/	.	.
.	.	32aa 32ee 32cc/	.	.
.	.	32a/JJJ	.	.
8d/L	.	32aaLLL 32ee 32cc/	.	.
.	.	32a/	.	.
.	.	32aa 32ee 32cc/	.	.
.	.	32a/	.	.
8c/	.	32aa 32ee 32cc/	.	.
.	.	32a/	.	.
.	.	32aa 32ee 32cc/	.	.
.	.	32a/	.	.
8B/	.	32aa 32ee 32cc/	.	.
.	.	32a/	.	.
.	.	32aa 32ee 32cc/	.	.
.	.	32a/	]	.
*	*	*Xped	*	*
8A/J	.	32aa 32ee 32cc/	.	.
.	.	32a/	.	.
.	.	32aa 32ee 32cc/	.	.
.	.	32a/JJJ)	.	.
=7	=7	=7	=7	=7
*	*	*ped	*	*
8r	[<1AAA	32aaLLL 32ff 32dd/	.	.
.	.	32a/	.	.
.	.	32aa 32ff 32dd/	.	.
.	.	32a/	.	.
8A/L	.	32aa 32ff 32dd/	<	.
.	.	32a/	.	.
.	.	32aa 32ff 32dd/	.	.
.	.	32a/	.	.
8G#X/	.	32aa 32ff 32dd/	.	.
.	.	32a/	.	.
.	.	32aa 32ff 32dd/	.	.
.	.	32a/	.	.
8A/J	.	32aa 32ff 32dd/	.	.
.	.	32a/	.	.
.	.	32aa 32ff 32dd/	.	.
.	.	32a/JJJ	.	.
8B-X/L	.	32aaLLL 32ff 32dd/	.	.
.	.	32a/	.	.
.	.	32aa 32ff 32dd/	.	.
.	.	32a/	.	.
8A/	.	32aa 32ff 32dd/	.	.
.	.	32a/	.	.
.	.	32aa 32ff 32dd/	.	.
.	.	32a/	.	.
8f/	.	32aa 32ff 32dd/	.	.
.	.	32a/	.	.
.	.	32aa 32ff 32dd/	.	.
.	.	32a/	.	.
8e/J	.	32aa 32ff 32dd/	.	.
.	.	32a/	.	.
.	.	32aa 32ff 32dd/	.	.
.	.	32a/JJJ	[	.
=8	=8	=8	=8	=8
8c#X/L	1AAA]	32aaLLL 32ff 32dd/	>	.
.	.	32a/	.	.
.	.	32aa 32ff 32dd/	.	.
.	.	32a/	.	.
8d/	.	32aa 32ff 32dd/	.	.
.	.	32a/	.	.
.	.	32aa 32ff 32dd/	.	.
.	.	32a/	.	.
8b-X/	.	32aa 32ff 32dd/	.	.
.	.	32a/	.	.
.	.	32aa 32ff 32dd/	.	.
.	.	32a/	.	.
8a/J	.	32aa 32ff 32dd/	.	.
.	.	32a/	.	.
.	.	32aa 32ff 32dd/	.	.
.	.	32a/JJJ	.	.
8g/L	.	32aaLLL 32ff 32dd/	.	.
.	.	32a/	.	.
.	.	32aa 32ff 32dd/	.	.
.	.	32a/	.	.
8f/	.	32aa 32ff 32dd/	.	.
.	.	32a/	.	.
.	.	32aa 32ff 32dd/	.	.
.	.	32a/	.	.
8e/	.	32aa 32ff 32dd/	.	.
.	.	32a/	.	.
.	.	32aa 32ff 32dd/	.	.
.	.	32a/	.	.
*	*	*Xped	*	*
8d/J	.	32aa 32ff 32dd/	]	.
.	.	32a/	.	.
.	.	32aa 32ff 32dd/	.	.
.	.	32a/JJJ	.	.
!!LO:LB:g=original
=9	=9	=9	=9	=9
*	*	*ped	*	*
8r	1AAA^<	32gg#XLLL 32ff 32dd/	.	.
.	.	32g#X/	.	.
.	.	32gg# 32ff 32dd/	.	.
.	.	32g#/	.	.
8AA#X/L	.	32gg# 32ff 32dd/	<	.
.	.	32g#/	.	.
.	.	32gg# 32ff 32dd/	.	.
.	.	32g#/	.	.
8BB/	.	32gg# 32ff 32dd/	.	.
.	.	32g#/	.	.
.	.	32gg# 32ff 32dd/	.	.
.	.	32g#/	.	.
8D/J	.	32gg# 32ff 32dd/	.	.
.	.	32g#/	.	.
.	.	32gg# 32ff 32dd/	.	.
.	.	32g#X/JJJ	.	.
8F/L	.	32gg#LLL 32ff 32dd/	.	.
.	.	32g#/	.	.
.	.	32gg# 32ff 32dd/	.	.
.	.	32g#/	.	.
8G#X/	.	32gg# 32ff 32dd/	.	.
.	.	32g#/	.	.
.	.	32gg# 32ff 32dd/	.	.
.	.	32g#/	.	.
8B/	.	32gg# 32ff 32dd/	.	.
.	.	32g#/	.	.
.	.	32gg# 32ff 32dd/	.	.
.	.	32g#/	.	.
*	*	*Xped	*	*
8c/J	.	32gg# 32ff 32dd/	[	.
.	.	32g#/	.	.
.	.	32gg# 32ff 32dd/	.	.
.	.	32g#/JJJ	.	.
=10	=10	=10	=10	=10
*	*	*ped	*	*
8r	1AAA^	32aaLLL 32ee 32cc/	.	.
.	.	32a/	.	.
.	.	32aa 32ee 32cc/	.	.
.	.	32a/	.	.
8GG#X/L	.	32aa 32ee 32cc/	<	.
.	.	32a/	.	.
.	.	32aa 32ee 32cc/	.	.
.	.	32a/	.	.
8AA/	.	32aa 32ee 32cc/	.	.
.	.	32a/	.	.
.	.	32aa 32ee 32cc/	.	.
.	.	32a/	.	.
8C/J	.	32aa 32ee 32cc/	.	.
.	.	32a/	.	.
.	.	32aa 32ee 32cc/	.	.
.	.	32a/JJJ	.	.
8E/L	.	32aaLLL 32ee 32cc/	.	.
.	.	32a/	.	.
.	.	32aa 32ee 32cc/	.	.
.	.	32a/	.	.
8G#X/	.	32aa 32ee 32cc/	.	.
.	.	32a/	.	.
.	.	32aa 32ee 32cc/	.	.
.	.	32a/	.	.
8B/	.	32aa 32ee 32cc/	.	.
.	.	32a/	.	.
.	.	32aa 32ee 32cc/	.	.
.	.	32a/	.	.
*	*	*Xped	*	*
8A/J	.	32aa 32ee 32cc/	[	.
.	.	32a/	.	.
.	.	32aa 32ee 32cc/	.	.
.	.	32a/JJJ	.	.
=11	=11	=11	=11	=11
8r	2.DD\	32aaLLL 32ff 32dd/	<	.
.	.	32a/	.	.
.	.	32aa 32ff 32dd/	.	.
.	.	32a/	.	.
(<8f/L	.	32aa 32ff 32dd/	.	.
.	.	32a/	.	.
.	.	32aa 32ff 32dd/	.	.
.	.	32a/	.	.
8c#X/	.	32aa 32ff 32dd/	.	.
.	.	32a/	.	.
.	.	32aa 32ff 32dd/	.	.
.	.	32a/	.	.
8d/J	.	32aa 32ff 32dd/	.	.
.	.	32a/	.	.
.	.	32aa 32ff 32dd/	.	.
.	.	32a/	.	.
8A#X/L	.	32aa 32ff 32dd/	.	.
.	.	32a/	.	.
.	.	32aa 32ff 32dd/	.	.
.	.	32a/	.	.
8B/J)	.	32aa 32ff 32dd/	.	.
.	.	32a/	.	.
.	.	32aa 32ff 32dd/	.	.
.	.	32a/JJJ	.	.
*	*	*Xtremolo	*	*
(<8G#X/L	4DD#X\	32aaLLL 32ff#X 32ccn/	.	.
.	.	32a/	.	.
.	.	32aa 32ff# 32cc/	.	.
.	.	32a/	.	.
8An/J)	.	32aa 32ff# 32cc/	.	.
.	.	32a/	.	.
.	.	32aa 32ff# 32cc/	.	.
.	.	32a/JJJ	[	.
*v	*v	*	*	*
=12	=12	=12	=12
8E 8EE/	8gg#X 8ee 8b 8g#X\	sf	.
8r	8r	.	.
8.E^>\L	8.e^</L	ff	.
16E^>\Jk	16e^</Jk	.	.
4E^>\	4e^</	.	.
4E^>\	4e^</	.	.
!!LO:LB:g=original
=13	=13	=13	=13
*tremolo	*	*	*
32D#XLLL 32C 32AA 32FF#X/	8r	sf	.
32EE/	.	.	.
32D# 32C 32AA 32FF#/	.	.	.
32EE/	.	.	.
32D# 32C 32AA 32FF#/	8ccccL 8ccc^>\	>	.
32EE/	.	.	.
32D# 32C 32AA 32FF#/	.	.	.
32EE/	.	.	.
32D# 32C 32AA 32FF#/	8aaa 8aa^>\	.	.
32EE/	.	.	.
32D# 32C 32AA 32FF#/	.	.	.
32EE/	.	.	.
32D# 32C 32AA 32FF#/	8fff#XJ 8ff#X^>\	.	.
32EE/	.	.	.
32D# 32C 32AA 32FF#/	.	.	.
32EE/JJJ	.	.	.
32D#LLL 32C 32AA 32FF#/	8ddd#XL 8dd#X^>\	.	.
32EE/	.	.	.
32D# 32C 32AA 32FF#/	.	.	.
32EE/	.	.	.
32D# 32C 32AA 32FF#/	8ccc 8cc^>\	.	.
32EE/	.	.	.
32D# 32C 32AA 32FF#/	.	.	.
32EE/	.	.	.
32D# 32C 32AA 32FF#/	8aa 8a^>\	.	.
32EE/	.	.	.
32D# 32C 32AA 32FF#/	.	.	.
32EE/	.	.	.
32D# 32C 32AA 32FF#/	8ff#XJ 8f#X^>\	]	.
32EE/	.	.	.
32D# 32C 32AA 32FF#/	.	.	.
32EE/JJJ	.	.	.
=14	=14	=14	=14
8E 8BB 8GG#X 8EE/	8ee 8e\	.	.
8r	8r	.	.
8.E^>\L	8.e^</L	ff	.
16E^>\Jk	16e^</Jk	.	.
4E^>\	4e^</	.	.
4E^>\	4e^</	.	.
=15	=15	=15	=15
*	*	*^	*
!	!	!	!LO:DY:b=2	!
32D#XLLL 32C 32AA 32FF#X/	8r	.	sf	.
32EE/	.	.	.	.
32D# 32C 32AA 32FF#/	.	.	.	.
32EE/	.	.	.	.
!	!	!	!LO:HP:b=2	!
32D# 32C 32AA 32FF#/	8aa'\L	p >	>	.
32EE/	.	.	.	.
32D# 32C 32AA 32FF#/	.	.	.	.
32EE/	.	.	.	.
32D# 32C 32AA 32FF#/	8ff#X'\	.	.	.
32EE/	.	.	.	.
32D# 32C 32AA 32FF#/	.	.	.	.
32EE/	.	.	.	.
32D# 32C 32AA 32FF#/	8dd#X'\J	.	.	.
32EE/	.	.	.	.
32D# 32C 32AA 32FF#/	.	.	.	.
32EE/JJJ	.	.	.	.
32D#LLL 32C 32AA 32FF#/	8cc'/L	.	.	.
32EE/	.	.	.	.
32D# 32C 32AA 32FF#/	.	.	.	.
32EE/	.	.	.	.
32D# 32C 32AA 32FF#/	8a'/	.	.	.
32EE/	.	.	.	.
32D# 32C 32AA 32FF#/	.	.	.	.
32EE/	.	.	.	.
32D# 32C 32AA 32FF#/	8f#X'/	.	.	.
32EE/	.	.	.	.
32D# 32C 32AA 32FF#/	.	.	]	.
32EE/	.	.	.	.
32D# 32C 32AA 32FF#/	8d#X'/J	.	.	.
32EE/	.	]	.	.
32D# 32C 32AA 32FF#/	.	.	.	.
32EE/JJJ	.	.	.	.
*	*	*v	*v	*
=16||	=16||	=16||	=16||
*M3/4	*M3/4	*	*
*	*^	*	*
!	!LO:TX:a:B:t=ANDANTINO.	!	!	!
4E 4BB 4GG#X 4EE/	4e/	4ryy	p	.
4r	4ryy	4r	.	.
!	!	!	!LO:DY:a	!
!	!	!	!LO:HP:a	!
4r	[>4ee/	4r	sf >	.
=17	=17	=17	=17	=17
*ped	*	*	*	*
4e 4A\	2ee/]	4cc 4a\	.	.
4r	.	4r	.	.
.	(<8qff/	.	.	.
*Xped	*	*	*	*
4r	[>4ee/)	4r	]]	.
!!LO:LB:g=original
=18	=18	=18	=18	=18
4e\	4ee/]	4b 4g#X\	.	.
4r	4r	4ryy	.	.
!	!	!	!LO:DY:a	!
!	!	!	!LO:HP:a	!
4r	[>4ee/	4r	sf >	.
=19	=19	=19	=19	=19
*ped	*	*	*	*
4e 4A\	2ee/]	4cc 4a\	.	.
4r	.	4r	.	.
.	(<8qff/	.	.	.
*Xped	*	*	*	*
4r	[>4ee/)	4r	]]	.
=20	=20	=20	=20	=20
*	*	*	*^	*
4e\	4ee/]	4b 4g#X\	.	.	.
4r	4ryy	4r	.	.	.
!	!	!	!LO:DY:a	!	!
!	!	!	!LO:HP:a	!	!
4r	[>4e/	4r	sf >	.	.
=21	=21	=21	=21	=21	=21
!	!	!	!	!LO:DY:b=2:rj	!
*	*	*ped	*	*	*
4AA 4AAA'/	2e/]	4c 4A\	.	pp	.
4r	.	4r	.	.	.
.	(<8qf/	.	.	.	.
4C 4CC'/	[>4e/)	4r	]]	.	.
*	*	*	*v	*v	*
=22	=22	=22	=22	=22
*	*	*Xped	*	*
4E 4EE'/	4e/]	4B 4G#X\	.	.
4r	4ryy	4r	.	.
!	!	!	!LO:DY:a	!
!	!	!	!LO:HP:a	!
4r	[>4e/	4r	sf >	.
=23	=23	=23	=23	=23
*	*	*ped	*	*
4AA 4AAA'/	2e/]	4c 4A\	.	.
4r	.	4r	.	.
.	(<8qf/	.	.	.
4C 4CC'/	[>4e/)	4r	]]	.
=24	=24	=24	=24	=24
*	*	*Xped	*	*
4E 4EE'/	4e/]	4B 4G#X\	.	.
4r	4r	4ryy	.	.
!	!	!	!LO:DY:a	!
4r	4e/	4ryy	p	.
*	*v	*v	*	*
=25	=25	=25	=25
2.r	(<2e^^/	.	.
.	4e'/)	.	.
!!LO:PB:g=original
=26	=26	=26	=26
!	!	!LO:DY:b=2	!
[>2.d [<2.B\	(<2e/	pp	.
.	4e'/)	.	.
=27	=27	=27	=27
2.d] 2.B\]	(<2e^^/	.	.
.	4e'/)	.	.
=28	=28	=28	=28
[>2.c [<2.A\	(<2e/	.	.
.	4e'/)	.	.
=29	=29	=29	=29
2.c] 2.A\]	(<2e/	.	.
.	4e'/)	.	.
=30	=30	=30	=30
[>2.B [<2.E\	(<2e/	.	.
.	4e'/)	.	.
=31	=31	=31	=31
!	!LO:TX:a:t=rall.	!	!
.	8qg/	.	.
2B] 2E\]	(<2f^^/	.	.
4r	(4e/)	.	.
=32	=32	=32	=32
*^	*^	*	*
!LO:TX:b:t=una corda.	!	!LO:TX:a:t=più lento.	!	!	!
*	*	*	*ped	*	*
8r	(<2.AA\	4ee/)	4re	.	.
[<8E/	.	.	.	.	.
2c 2A 2E/])	.	(>4ee'/	2e\	.	.
*	*	*	*Xped	*	*
.	.	4ee'/)	.	.	.
=33	=33	=33	=33	=33	=33
*	*	*	*ped	*	*
8r	(<2.AA\	(>4dd/	4r	.	.
[<8E/	.	.	.	.	.
.	.	8qqee/L	.	.	.
.	.	8qqdd/J	.	.	.
2d 2G#X 2E/])	.	4cc/	2e\	.	.
*	*	*	*Xped	*	*
.	.	4b/)	.	.	.
=34	=34	=34	=34	=34	=34
*	*	*	*ped	*	*
8r	(<2.AA\	(>4cc/	4r	.	.
[<8E/	.	.	.	.	.
2c 2A 2E/])	.	4b/	2e\	.	.
*	*	*	*Xped	*	*
.	.	4a/)	.	.	.
=35	=35	=35	=35	=35	=35
*	*	*	*ped	*	*
8r	(<2.AA\	2b/	4r	.	.
[<8E/	.	.	.	.	.
2d 2G#X 2E/])	.	.	2e\	.	.
*	*	*	*Xped	*	*
.	.	(>4e/	.	.	.
!!LO:LB:g=original
=36	=36	=36	=36	=36	=36
*	*	*ped	*	*	*
8r	(<2.AA\	4ee/)	4r	.	.
[<8E/	.	.	.	.	.
2c 2A 2E/])	.	(>4ee'/	2e\	.	.
*	*	*	*Xped	*	*
.	.	4ee'/)	.	.	.
=37	=37	=37	=37	=37	=37
*	*	*	*ped	*	*
8r	(<2.AA\	(>4dd/	4r	.	.
[<8E/	.	.	.	.	.
.	.	8qqee/L	.	.	.
.	.	8qqdd/J	.	.	.
2d 2G#X 2E/])	.	4cc/	2e\	.	.
*	*	*	*Xped	*	*
.	.	4b/)	.	.	.
=38	=38	=38	=38	=38	=38
*	*	*	*ped	*	*
8r	(<2.AA\	(>4cc/	4r	.	.
[<8E/	.	.	.	.	.
2d 2G#X 2E/])	.	4.dd/	2e\	.	.
*	*	*	*Xped	*	*
.	.	8b/)	.	.	.
=39	=39	=39	=39	=39	=39
*	*	*	*ped	*	*
8r	(<2.AA\	2a^^/	2.rf	.	.
[<8E/	.	.	.	.	.
2c 2A 2E/])	.	.	.	.	.
*	*	*	*Xped	*	*
.	.	(>4e/	.	.	.
=40	=40	=40	=40	=40	=40
*	*	*	*ped	*	*
8r	(2.AA\	4ee/)	4r	.	.
(<8E/	.	.	.	.	.
2c 2A/))	.	4ee'/	4r	.	.
*	*	*	*Xped	*	*
.	.	(>4ee/	[<4e^<\	.	.
=41	=41	=41	=41	=41	=41
*	*	*	*ped	*	*
8r	(2.AA\	4dd/	2e\]	.	.
(<8E/	.	.	.	.	.
.	.	8qqee/L	.	.	.
.	.	8qqdd/J	.	.	.
2d 2G#X/))	.	4cc/	.	.	.
*	*	*	*Xped	*	*
.	.	4b/)	[4e^<\	.	.
=42	=42	=42	=42	=42	=42
*	*	*	*ped	*	*
8r	(2.AA\	(>4cc/	2e\]	.	.
(<8E/	.	.	.	.	.
2c 2A/))	.	4b/	.	.	.
*	*	*	*Xped	*	*
.	.	4a/)	[<4e^<\	.	.
!!LO:LB:g=original
=43	=43	=43	=43	=43	=43
*	*	*	*ped	*	*
8r	(2.AA\	(>2b/	2e\]	.	.
(8E/	.	.	.	.	.
2d 2G#X/))	.	.	.	.	.
*	*	*	*Xped	*	*
.	.	4e/	[<4e^<\	.	.
=44	=44	=44	=44	=44	=44
*	*	*	*ped	*	*
8r	(2.AA\	4ee/)	2e\]	.	.
(<8E/	.	.	.	.	.
2c 2A/))	.	4ee'/	.	.	.
*	*	*	*Xped	*	*
.	.	(>4ee/	[<4e^<\	.	.
=45	=45	=45	=45	=45	=45
*	*	*	*ped	*	*
8r	(2.AA\	4dd/	2e\]	.	.
(<8E/	.	.	.	.	.
.	.	8qqee/L	.	.	.
.	.	8qqdd/J	.	.	.
2d 2G#X/))	.	4cc/	.	.	.
*	*	*	*Xped	*	*
.	.	4b/)	[<4e^<\	.	.
=46	=46	=46	=46	=46	=46
*	*	*	*ped	*	*
8r	(2.AA\	(>4cc/	2e\]	.	.
(<8E/	.	.	.	.	.
2d 2G#X/))	.	4.dd/	.	.	.
.	.	.	[<4e^<\	.	.
*	*	*	*Xped	*	*
.	.	8b/)	.	.	.
=47	=47	=47	=47	=47	=47
*	*	*	*ped	*	*
8r	(2AA\	(>2a^^/	2e\]	.	.
(<8E/	.	.	.	.	.
4c 4A/))	.	.	.	.	.
*	*	*	*Xped	*	*
4c 4F#X/	4r	4b/	(<4d#X^<\	.	.
=48	=48	=48	=48	=48	=48
*	*	*	*ped	*	*
8r	(2.GG\	4cc/)	2e\)	.	.
(<8E/	.	.	.	.	.
2c 2G/))	.	(>4cc/	.	.	.
*	*	*	*Xped	*	*
.	.	4cc#X/)	[<4g^<\	.	.
=49	=49	=49	=49	=49	=49
*	*	*	*ped	*	*
8r	(2.GG\	(>2dd/	2g\]	.	.
(<8F/	.	.	.	.	.
2B 2G/))	.	.	.	.	.
*	*	*	*Xped	*	*
.	.	4gg/	[<4g^<\	.	.
!!LO:LB:g=original
=50	=50	=50	=50	=50	=50
*	*	*	*ped	*	*
8r	(2.GG\	8cc'/)	2g\]	.	.
(<8E/	.	8r	.	.	.
2c 2G/))	.	(>4cc/	.	.	.
*	*	*	*Xped	*	*
.	.	4cc#X/)	[<4g^<\	.	.
=51	=51	=51	=51	=51	=51
*	*	*	*ped	*	*
8r	(2.GG\	(2dd/	2g\]	.	.
(<8F/	.	.	.	.	.
2B 2G/))	.	.	.	.	.
*	*	*	*Xped	*	*
.	.	4gg/	4g^<\	.	.
=52	=52	=52	=52	=52	=52
*	*	*	*	*^	*
.	.	(>8qqe\L	.	.	.	.
!	!	!LO:TX:a:t=piu mosso.	!	!	!	!
.	.	8qqcc\J	.	.	.	.
*	*	*	*ped	*	*	*
4r	2.GG 2.CC\	8ee'/))	2.rf	<	.	.
.	.	8r	.	.	.	.
!	!	!	!	!	!LO:HP:b=2	!
(<8qA/	.	.	.	.	<	.
(<4G/)	.	(4ee^>/	.	.	.	.
.	.	(>8qqf\L	.	.	.	.
.	.	8qqcc\J	.	.	.	.
4A/)	.	8.gg/L)	.	[[	[[	.
*	*	*	*Xped	*	*	*
.	.	16ff/Jk)	.	.	.	.
*	*	*	*	*v	*v	*
=53	=53	=53	=53	=53	=53
*	*	*	*	*^	*
*	*	*	*ped	*	*	*
4r	2.GG 2.CC\	(2ee/	2cc 2e\	>	.	.
!	!	!	!	!	!LO:HP:b=2	!
(<8qA/	.	.	.	.	<	.
(<4G/)	.	.	.	.	.	.
4A/)	.	8.cc/L	4f\	.	.	.
*	*	*	*Xped	*	*	*
.	.	16dd/Jk	.	]	[	.
=54	=54	=54	=54	=54	=54	=54
.	.	(>8qqe\L	.	.	.	.
.	.	8qqcc\J	.	.	.	.
*	*	*	*ped	*	*	*
4r	2.GG 2.CC\	8ee'/))	2.rf	<	.	.
.	.	8r	.	.	.	.
!	!	!	!	!	!LO:HP:b=2	!
(<8qA/	.	.	.	.	<	.
(<4G/)	.	(>4ee^>/	.	.	.	.
.	.	(>8qqf\L	.	.	.	.
.	.	8qqcc\J	.	.	.	.
4A/)	.	8.gg/L)	.	[[	[[	.
*	*	*	*Xped	*	*	*
.	.	16ff/Jk)	.	.	.	.
*	*	*	*	*v	*v	*
=55	=55	=55	=55	=55	=55
*	*	*	*ped	*	*
4r	2.GG 2.CC\	(>2ee:/	2cc: 2e:\	>	.
(<8qA/	.	.	.	.	.
4G/)	.	.	.	.	.
4r	.	8.ee/L	4r	.	.
*	*	*	*Xped	*	*
.	.	16dd/Jk	.	]	.
!!LO:LB:g=original
=56	=56	=56	=56	=56	=56
*	*	*	*ped	*	*
2.d 2.A/	4r	4cc/)	2f#X\	.	.
.	(<8qE/	.	.	.	.
.	(<4D\)	(>4cc/	.	.	.
*	*	*	*Xped	*	*
.	4DD\)	4dd/)	4r	.	.
=57	=57	=57	=57	=57	=57
*	*	*	*ped	*	*
4r	2.GGG\	(>2ee/	4cc 4g\	.	.
(<8qA/	.	.	.	.	.
[4G/)	.	.	4r	.	.
*	*	*	*Xped	*	*
4e 4G'/]	.	4ee/:	4cc: 4g\:	.	.
*v	*v	*	*	*	*
=58	=58	=58	=58	=58
*	*	*ped	*	*
4F 4GG/	4ee/):	4b: 4g\:	.	.
(<8qA/	.	.	.	.
[4G^>\)	(>4dd/	4r	.	.
*	*	*Xped	*	*
4d 4G'\]	4b/)	4g\	.	.
=59	=59	=59	=59	=59
2F#X 2FF#X\	(>2a/	4d 4c\	>	.
.	.	(<8qe/	.	.
.	.	2d\)	.	.
4G 4GG\	4g/)	.	]]	.
=60	=60	=60	=60	=60
4A 4AA\	4cc/	2f#X 2d\	<	.
(<8qE/	.	.	.	.
4D\)	(>4cc/	.	.	.
4A-X 4C 4AA-X\	4dd/)	4fn 4d\	[[	.
=61	=61	=61	=61	=61
*	*	*ped	*	*
4G 4C 4GG\	(>2ee/	4g 4e\	.	.
(<8qAn/	.	.	.	.
[<4G\)	.	4r	.	.
*	*	*Xped	*	*
4c 4G'\]	4ee/	4g\	.	.
=62	=62	=62	=62	=62
*	*	*ped	*	*
4G 4GG\	4ee/)	4b 4f\	.	.
(<8qA/	.	.	.	.
[<4G\)	(4dd/	4r	.	.
*	*	*Xped	*	*
4d 4G'\]	4b/)	4g\	.	.
=63	=63	=63	=63	=63
*	*	*ped	*	*
4e 4c\	4cc/	4g\	.	.
8C 8CC/	8ccc 8ee 8cc\	4ryy	.	.
*	*	*Xped	*	*
8r	8r	.	.	.
4r;>	4r;>	4ryy	.	.
*	*v	*v	*	*
!!LO:PB:g=original
=64||	=64||	=64||	=64||
*	*	*	*below
!	!LO:TUP:a	!	!
!	!LO:TX:t=P:problem=klamra łukowa	!	!
!	!LO:TX:a:t=poco vivace e animato.	!LO:DY:rj	!
4g#X 4e^^\	12eeL 12dd 12b\	f	3
.	12ff\	.	4
.	12ee\J	.	1
4B 4G#X 4E^^\	4eee\	.	.
*	*8va	*	*
8BB 8BBB/	8eeee 8bbb 8ggg#X 8eee\	sf	.
*	*X8va	*	*
8r	8r	.	.
=65	=65	=65	=65
!	!LO:TUP:a	!	!
!	!LO:TX:t=P:problem=klamra łukowa	!	!
4a 4e^^\	12eeL 12cc\	.	3
.	12ff\	.	4
.	12ee\J	.	1
4c 4A 4E^^\	4eee\	.	.
*	*8va	*	*
8AA 8AAA/	8eeee 8cccc 8aaa 8eee\	sf	.
*	*X8va	*	*
8r	8r	.	.
=66	=66	=66	=66
4d#X 4c 4A 4F#X 4D#X\	4aa 4ff#X 4cc\	sf	.
4d# 4c 4A 4F# 4D#\	4aa 4ff# 4cc\	sf	.
4d# 4c 4A 4F# 4D#\	4bb 4ff# 4cc\	sf	.
=67	=67	=67	=67
4e 4B 4G#X 4E\	8aaL 8ee 8b'\	.	.
.	(>32bb\LL	.	.
.	32aa\	.	.
.	32gg#X\	.	.
.	32ff#X\JJJ)	.	.
8e 8B 8G# 8E\	8ee'\	sf	.
8r	8r	.	.
4r	4r	.	.
=68	=68	=68	=68
!	!LO:TUP:a	!	!
!	!LO:TX:t=P:problem=klamra łukowa	!LO:DY:rj	!
4g#X 4e^<\	12eeL 12dd 12b\	f	.
.	12ff\	.	.
.	12ee\J	.	.
4B 4G#X 4E^<\	4eee\	.	.
*	*8va	*	*
8BB 8BBB/	8eeee 8dddd 8ggg#X 8eee\	sf	.
*	*X8va	*	*
8r	8r	.	.
!!LO:LB:g=original
=69	=69	=69	=69
!	!LO:TUP:a	!	!
!	!LO:TX:t=P:problem=klamra łukowa	!	!
4a 4e^<\	12eeL 12cc\	.	.
.	12ff\	.	.
.	12ee\J	.	.
4c 4A 4E^<\	4eee\	.	.
*	*8va	*	*
8AA 8AAA/	8eeee 8cccc 8aaa 8eee\	f	.
*	*X8va	*	*
8r	8r	.	.
=70	=70	=70	=70
4d#X 4c 4A 4F#X 4D#X\	4aa 4ff#X 4cc\	sf	.
4d# 4c 4A 4F# 4D#\	4aa 4ff# 4cc\	sf	.
4d# 4c 4A 4F# 4D#\	4bb 4ff# 4cc\	sf	.
=71	=71	=71	=71
4e 4B 4G#X 4E\	(>16aa\LL	sf	.
.	16gg#X\	.	.
.	16ff#X\	.	.
.	16ee\JJ)	.	.
8E 8EE/	8eee'\	.	.
8r	8r	.	.
4d#X 4c 4A 4F#X 4D#X\	(>16dddn\LL	sf	.
.	16ccc\	.	.
.	16bb\	.	.
.	16aa\JJ)	.	.
=72	=72	=72	=72
4e 4B 4G#X 4E\	(>16aa\LL	sf	.
.	16gg#X\	.	.
.	16ff#X\	.	.
.	16ee\JJ)	.	.
8E 8EE/	8eee'\	.	.
8r	8r	.	.
4d#X 4c 4A 4F#X 4D#X\	(>16dddn\LL	sf	.
.	16ccc\	.	.
.	16bb\	.	.
.	16aa\JJ)	.	.
!!LO:LB:g=original
=73	=73	=73	=73
4e 4B 4G#X 4E\	(>16aa\LL	sf	.
.	16gg#X\	.	.
.	16ff#X\	.	.
.	16ee\JJ)	.	.
8E 8EE/	8eee'\	.	.
8r	8r	.	.
4c 4A 4F#X 4D#X 4C^<\	(>16dddn\LL	sf	.
.	16ccc\	.	.
.	16bb\	.	.
.	16aa\JJ)	.	.
=74	=74	=74	=74
4e 4B 4G#X 4E\	(>16aa\LL	sf	.
.	16gg#X\	.	.
.	16ff#X\	.	.
.	16ee\JJ)	.	.
8E 8EE/	8eee'\	.	.
8r	8r	.	.
4c 4A 4F#X 4D#X 4C^<\	(>16dddn\LL	sf	.
.	16ccc\	.	.
.	16bb\	.	.
.	16aa\JJ)	.	.
=75||	=75||	=75||	=75||
*k[f#c#g#]	*k[f#c#g#]	*	*
*M6/8	*M6/8	*	*
!	!LO:TX:a:B:t=ALLEGRETTO.	!	!
8e 8B 8G# 8E\	8gg#'\	sf	.
8r	(>16eee\LL	pp	.
!	!LO:TX:b:t=legato.	!	!
.	16ee\	.	.
8r	16eee\	.	.
.	16ee\JJ	.	.
4r	16eee\LL	.	.
.	16ee\	.	.
.	16eee\	.	.
.	16ee\	.	.
8r	16eee\	.	.
.	16ee\JJ)	.	.
!!LO:LB:g=original
=76	=76	=76	=76
2.r	(>16eee\LL	.	.
.	16ee\	.	.
.	16eee\	.	.
.	16ee\	.	.
.	16eee\	.	.
.	16ee\JJ	.	.
.	16eee\LL	.	.
.	16ee\	.	.
.	16eee\	.	.
.	16ee\	.	.
.	16eee\	.	.
.	16ee\JJ)	.	.
=77	=77	=77	=77
2.r	(>16eee\LL	.	.
.	16ee\	.	.
.	16eee\	.	.
.	16ee\	.	.
.	16eee\	.	.
.	16ee\JJ	.	.
.	16eee\LL	.	.
.	16ee\	.	.
.	16eee\	.	.
.	16ee\	.	.
.	16eee\	.	.
.	16ee\JJ)	.	.
=78	=78	=78	=78
2.r	(>16eee\LL	.	.
.	16ee\	.	.
.	16eee\	.	.
.	16ee\	.	.
.	16eee\	.	.
.	16ee\JJ	.	.
.	16eee\LL	.	.
.	16ee\	.	.
.	16eee\	.	.
.	16ee\	.	.
.	16eee\	.	.
.	16ee\JJ)	.	.
=79	=79	=79	=79
2.r	(>16eee\LL	.	.
!	!LO:TX:b:t=dolce.	!	!
.	16ee\	.	.
.	16eee\	.	.
.	16ee\	.	.
.	16eee\	.	.
.	16ee\JJ	.	.
.	16ddd\LL	.	.
.	16ee\	.	.
.	16ccc#\	.	.
.	16ee\	.	.
.	16bb\	.	.
.	16ee\JJ)	.	.
!!LO:LB:g=original
=80	=80	=80	=80
2.r	(>16aa\LL	.	.
.	16ee\	.	.
.	16gg#\	.	.
.	16ee\	.	.
.	16ff#\	.	.
.	16ee\JJ	.	.
.	16ff#\LL	.	.
.	16ee\	.	.
.	16ff#\	.	.
.	16ee\	.	.
.	16dd\	.	.
.	16ee\JJ)	.	.
=81	=81	=81	=81
2.r	(>16cc#\LL	.	.
.	16ee\	.	.
.	16dd\	.	.
.	16ee\	.	.
.	16dd#X\	.	.
.	16ee\JJ	.	.
.	16dd#\LL	.	.
.	16ee\	.	.
.	16ccc#\	.	.
.	16ee\	.	.
.	16bb\	.	.
.	16ee\JJ)	.	.
=82	=82	=82	=82
2.r	(>16aa\LL	.	.
.	16ee\	.	.
.	16gg#\	.	.
.	16ee\	.	.
.	16aa\	.	.
.	16ee\JJ	.	.
.	16bb\LL	.	.
.	16ee\	.	.
.	16ccc#\	.	.
.	16ee\	.	.
.	16ddd\	.	.
.	16ee\JJ)	.	.
=83	=83	=83	=83
2.r	(>16eee\LL	.	.
.	16ee\	.	.
.	16eee\	.	.
.	16ee\	.	.
.	16eee\	.	.
.	16ee\JJ	.	.
.	16ddd\LL	.	.
.	16ee\	.	.
.	16ccc#\	.	.
.	16ee\	.	.
.	16bb\	.	.
.	16ee\JJ)	.	.
!!LO:LB:g=original
=84	=84	=84	=84
2.r	(>16aa\LL	.	.
.	16ee\	.	.
.	16gg#\	.	.
.	16ee\	.	.
.	16ff#\	.	.
.	16ee\JJ	.	.
.	16ff#\LL	.	.
.	16ee\	.	.
.	16ff#\	.	.
.	16ee\	.	.
.	16dd\	.	.
.	16ee\JJ)	.	.
=85	=85	=85	=85
2.r	(>16cc#\LL	.	.
.	16ee\	.	.
.	16dd\	.	.
.	16ee\	.	.
.	16dd#X\	.	.
.	16ee\JJ	.	.
.	16dd#\LL	.	.
.	16ee\	.	.
.	16ccc#\	.	.
.	16ee\	.	.
.	16bb\	.	.
.	16ee\JJ)	.	.
=86	=86	=86	=86
2.r	(>16bb\LL	.	.
.	16ee\	.	.
.	16bb\	.	.
.	16ee\	.	.
.	16bb\	.	.
.	16ee\JJ	.	.
.	16aa\LL	.	.
.	16bb\	.	.
.	16ccc#\	.	.
.	16eee\	.	.
*	*8va	*	*
.	16aaa\	.	.
.	16cccc#\JJ)	.	.
*clefG2	*	*	*
=87	=87	=87	=87
[>2.ee [<2.e\	(>16eeee\LL	.	.
.	16eee\	.	.
.	16eeee\	.	.
.	16eee\	.	.
.	16eeee\	.	.
.	16eee\JJ	.	.
.	16dddd\LL	.	.
.	16eee\	.	.
.	16cccc#\	.	.
.	16eee\	.	.
.	16bbb\	.	.
.	16eee\JJ)	.	.
!!LO:LB:g=original
=88	=88	=88	=88
2.ee_> 2.e\_<	(>16aaa\LL	.	.
.	16eee\	.	.
.	16ggg#\	.	.
.	16eee\	.	.
.	16fff#\	.	.
.	16eee\JJ	.	.
.	16fff#\LL	.	.
.	16eee\	.	.
.	16fff#\	.	.
.	16eee\	.	.
.	16ddd\	.	.
.	16eee\JJ)	.	.
=89	=89	=89	=89
2.ee_> 2.e\_<	(>16ccc#\LL	.	.
.	16eee\	.	.
.	16ddd\	.	.
.	16eee\	.	.
.	16ddd#X\	.	.
.	16eee\JJ	.	.
.	16ddd#\LL	.	.
.	16eee\	.	.
.	16cccc#\	.	.
.	16eee\	.	.
.	16bbb\	.	.
.	16eee\JJ)	.	.
=90	=90	=90	=90
2.ee_> 2.e\_<	(>16aaa\LL	.	.
.	16eee\	.	.
.	16ggg#\	.	.
.	16eee\	.	.
.	16aaa\	.	.
.	16eee\JJ	.	.
.	16bbb\LL	.	.
.	16eee\	.	.
.	16cccc#\	.	.
.	16eee\	.	.
.	16dddd\	.	.
.	16eee\JJ)	.	.
=91	=91	=91	=91
2.ee_> 2.e\_<	(>16eeee\LL	.	.
.	16eee\	.	.
.	16eeee\	.	.
.	16eee\	.	.
.	16eeee\	.	.
.	16eee\JJ	.	.
.	16dddd\LL	.	.
.	16eee\	.	.
.	16cccc#\	.	.
.	16eee\	.	.
.	16bbb\	.	.
.	16eee\JJ)	.	.
!!LO:LB:g=original
=92	=92	=92	=92
2.ee_> 2.e\_<	(>16aaa\LL	.	.
.	16eee\	.	.
.	16ggg#\	.	.
.	16eee\	.	.
.	16fff#\	.	.
.	16eee\JJ	.	.
.	16fff#\LL	.	.
.	16eee\	.	.
.	16fff#\	.	.
.	16eee\	.	.
.	16ddd\	.	.
.	16eee\JJ)	.	.
=93	=93	=93	=93
2.ee_> 2.e\_<	(>16ccc#\LL	.	.
.	16eee\	.	.
.	16ddd\	.	.
.	16eee\	.	.
.	16ddd#X\	.	.
.	16eee\JJ	.	.
.	16ddd#\LL	.	.
.	16eee\	.	.
.	16cccc#\	.	.
.	16eee\	.	.
.	16bbb\	.	.
.	16eee\JJ)	.	.
=94	=94	=94	=94
4.ee] 4.e\]	(>16bbb\LL	.	.
.	16eee\	.	.
.	16bbb\	.	.
.	16eee\	.	.
.	16bbb\	.	.
.	16eee\JJ)	.	.
4cc# 4a/	4aaa\	.	.
*	*X8va	*	*
8r	8r	.	.
=95||	=95||	=95||	=95||
*clefF4	*	*	*
!	!LO:TX:a:t=loco.:rj	!	!
.	(<8qqa/L	.	.
.	8qqdd/	.	.
!	!LO:TX:a:t=risoluto.	!	!
.	8qqggn/J)	.	.
4.d 4.A 4.D\	8.ffn\L	ff	.
.	16ee\K	.	.
.	8ff\J	.	.
4.fn 4.Gn\	8.aaL 8.dd 8.b^>\	.	.
.	16ggn\K	.	.
.	8ff\J	.	.
!!LO:LB:g=original
=96	=96	=96	=96
4.cn 4.Cn\	8.eeL 8.ccn 8.gn^>\	.	.
.	16ffn\K	.	.
.	8ee\J	.	.
4.B 4.BB\	8.eeL 8.dd 8.g#X^>\	.	.
.	16ff\K	.	.
.	8ee\J	.	.
=97	=97	=97	=97
4.A 4.AA\	8.eeL 8.ccn 8.a^>\	.	.
.	16ffn\K	.	.
.	8ee\J	.	.
4.d#X 4.D#X\	8.aaL 8.cc^>\	.	.
.	16bb\K	.	.
.	8aa\J	.	.
=98	=98	=98	=98
4.e 4.E\	8.aaL 8.dd\	.	.
.	16gg#X\K	.	.
.	8ff#X\J	.	.
.	8qff#/	.	.
4r	8.ee\L	.	.
.	16dd#X\K	.	.
8r	8ee\J	.	.
=99	=99	=99	=99
.	(<8qqa/L	.	.
.	8qqddn/	.	.
.	8qqggn/J)	.	.
4.d 4.A 4.D\	8.ffn\L	.	.
.	16ee\K	.	.
.	8ff\J	.	.
4.fn 4.Gn\	8.aaL 8.dd 8.b^>\	.	.
.	16ggn\K	.	.
.	8ff\J	.	.
=100	=100	=100	=100
4.cn 4.Cn\	8.eeL 8.ccn 8.gn^>\	.	.
.	16ffn\K	.	.
.	8ee\J	.	.
4.B 4.BB\	8.eeL 8.dd 8.g#X^>\	.	.
.	16ff\K	.	.
.	8ee\J	.	.
!!LO:LB:g=original
=101	=101	=101	=101
4.A 4.AA\	8.eeL 8.ccn 8.a^>\	.	.
.	16ffn\K	.	.
.	8ee\J	.	.
4.d#X 4.D#X\	8.aaL 8.cc^>\	.	.
.	16bb\K	.	.
.	8aa\J	.	.
=102	=102	=102	=102
.	(>8qaa [<8qb/	.	.
4.e 4.E\	8gg#XL 8b\])	.	.
.	8ff#X^>\	.	.
.	8ee^>\J	.	.
8.FnL 8.GG#X\	8.bbL 8.dd 8.b\	.	.
16d#XK 16D#X\	16bbK 16ccn\	sf	.
8d#J 8D#\	8aaJ 8cc^^\	.	.
=103	=103	=103	=103
.	(>8qaa [<8qb/	.	.
4.e 4.E\	8gg#L 8b\])	.	.
.	8ff#X^>\	.	.
.	8ee^>\J	.	.
8.FnL 8.GG#\	8.bbL 8.dd 8.b\	.	.
16d#XK 16D#X\	16bbK 16ccn\	sf	.
8d#J 8D#\	8aaJ 8cc^>\	.	.
=104	=104	=104	=104
.	(>8qaa [<8qb/	.	.
4.e 4.E\	8gg#L 8b\])	.	.
.	8ff#X^>\	.	.
.	8ee^>\J	.	.
8.FnL 8.GG#\	8.bbL 8.dd 8.b\	.	.
16d#XK 16D#X\	16bbK 16ccn\	sf	.
8d#J 8D#\	8aaJ 8cc^>\	.	.
=105	=105	=105	=105
.	(>8qaa [<8qb/	.	.
4.e 4.E\	8gg#L 8b\])	.	.
.	8ff#X^>\	.	.
.	8ee^>\J	.	.
8.FnL 8.GG#\	8.bbL 8.dd 8.b\	.	.
16d#XK 16D#X\	16bbK 16ccn\	sf	.
8d#J 8D#\	8aaJ 8cc^>\	.	.
!!LO:LB:g=original
=106	=106	=106	=106
!	!	!LO:DY:rj	!
8e 8E\	8gg# 8b'\	sf	.
8r	(>16eee\LL	pp	.
.	16ee\	.	.
!	!LO:TX:b:t=una corda.	!	!
8r	16eee\	.	.
.	16ee\JJ	.	.
8e\	16eee\LL	.	.
.	16ee\	.	.
8r	16eee\	.	.
.	16ee\	.	.
8r	16eee\	.	.
.	16ee\JJ)	.	.
=107	=107	=107	=107
8e\	(>16eee\LL	.	.
.	16ee\	.	.
8r	16eee\	.	.
.	16ee\	.	.
8r	16eee\	.	.
.	16ee\JJ	.	.
8e\	16eee\LL	.	.
.	16ee\	.	.
8r	16eee\	.	.
.	16ee\	.	.
8r	16eee\	.	.
.	16ee\JJ)	.	.
=108	=108	=108	=108
8e\	(>16eee\LL	.	.
.	16ee\	.	.
8r	16eee\	.	.
.	16ee\	.	.
8r	16eee\	.	.
.	16ee\JJ	.	.
8e\	16eee\LL	.	.
.	16ee\	.	.
8r	16eee\	.	.
.	16ee\	.	.
8r	16eee\	.	.
.	16ee\JJ)	.	.
=109	=109	=109	=109
8e\	(>16eee\LL	.	.
.	16ee\	.	.
8r	16eee\	.	.
.	16ee\	.	.
8r	16eee\	.	.
.	16ee\JJ	.	.
8e\	16eee\LL	.	.
.	16ee\	.	.
8r	16eee\	.	.
.	16ee\	.	.
8r	16eee\	.	.
.	16ee\JJ)	.	.
*clefG2	*	*	*
!!LO:LB:g=original
=110	=110	=110	=110
*	*8va	*	*
*^	*^	*	*
*	*	*	*ped	*	*
4r	2.A^<\	8eee'/	16eee\LL	ppp	.
.	.	.	16ee\	.	.
.	.	8r	16ee\	.	.
.	.	.	16ee\	.	.
8cc#L 8a 8e'</	.	(>8eee/L	16eee\	.	.
.	.	.	16ee\JJ	.	.
8ddJ 8g# 8e'</	.	8fff#'/J)	16fff#\LL	.	.
.	.	.	16ff#\	.	.
8r	.	8r	16ff#\	.	.
.	.	.	16ff#\	.	.
8r	.	(>8ggg#/L	16ggg#\	.	.
*	*	*	*Xped	*	*
.	.	.	16gg#\JJ	.	.
=111	=111	=111	=111	=111	=111
*	*	*	*ped	*	*
4r	2.A^<\	8aaa'/J)	16aaa\LL	.	.
.	.	.	16aa\	.	.
.	.	8r	16aa\	.	.
.	.	.	16aa\	.	.
8cc#L 8gn 8e'</	.	(>8aaa#X/L	16aaa#\	.	.
.	.	.	16aa#X\JJ	.	.
8ddJ 8g#X 8e'</	.	8bbb'/J)	16bbb\LL	.	.
.	.	.	16bb\	.	.
8r	.	8r	16bb\	.	.
.	.	.	16bb\	.	.
!	!	!LO:TX:t=P:problem=cross-measure beam	!	!	!
8r	.	(>8bbb#X/	16bbb#\	.	.
*	*	*	*Xped	*	*
.	.	.	16bb#X\JJ	.	.
=112	=112	=112	=112	=112	=112
*	*	*	*ped	*	*
4r	2.A^\	8cccc#'/)	16cccc#\LL	.	.
.	.	.	16ccc#\	.	.
.	.	8r	16ccc#\	.	.
.	.	.	16ccc#\	.	.
8cc#L 8a 8e'/	.	(8bbbn/L	16bbbn\	.	.
.	.	.	16bbn\JJ	.	.
8cc#J 8a 8e'/	.	8aaa'/J)	16aaa\LL	.	.
.	.	.	16aa\	.	.
8r	.	8r	16aa\	.	.
.	.	.	16aa\	.	.
8r	.	(8eee/L	16eee\	.	.
*	*	*	*Xped	*	*
.	.	.	16ee\JJ	.	.
=113	=113	=113	=113	=113	=113
.	.	(8qggg#/	.	.	.
*	*	*	*ped	*	*
4r	2.A^\	8fff#'/J))	16fff#\LL	.	.
.	.	.	16ff#\	.	.
.	.	8r	16ff#\	.	.
.	.	.	16ff#\	.	.
8ddL 8g# 8e'</	.	(8eee/L	16eee\	.	.
.	.	.	16ee\JJ	.	.
.	.	(<8qggg#/	.	.	.
8ddJ 8g# 8e'</	.	8fff#'/J))	16fff#\LL	.	.
.	.	.	16ff#\	.	.
8r	.	8r	16ff#\	.	.
.	.	.	16ff#\	.	.
8r	.	8eee'/	16eee\	.	.
*	*	*	*Xped	*	*
.	.	.	16ee\JJ	.	.
!!LO:PB:g=original
=114	=114	=114	=114	=114	=114
*	*	*	*ped	*	*
4r	2.A^</	8eee'/	16eee\LL	.	.
.	.	.	16ee\	.	.
.	.	8r	16ee\	.	.
.	.	.	16ee\	.	.
8cc#L 8a 8e'</	.	(>8eee/L	16eee\	.	.
.	.	.	16ee\JJ	.	.
8ddJ 8g# 8e'</	.	8fff#'/J)	16fff#\LL	.	.
.	.	.	16ff#\	.	.
8r	.	8r	16ff#\	.	.
.	.	.	16ff#\	.	.
8r	.	(>8ggg#/L	16ggg#\	.	.
*	*	*	*Xped	*	*
.	.	.	16gg#\JJ	.	.
=115	=115	=115	=115	=115	=115
*	*	*	*ped	*	*
4r	2.A^<\	8aaa'/J)	16aaa\LL	.	.
.	.	.	16aa\	.	.
.	.	8r	16aa\	.	.
.	.	.	16aa\	.	.
8cc#L 8gn 8e'</	.	(8aaa#X/L	16aaa#\	.	.
.	.	.	16aa#X\JJ	.	.
8ddJ 8g#X 8e'</	.	8bbb'/J)	16bbb\LL	.	.
.	.	.	16bb\	.	.
8r	.	8r	16bb\	.	.
.	.	.	16bb\	.	.
!	!	!LO:TX:t=P:problem=cross-measure beam	!	!	!
8r	.	(>8bbb#X/	16bbb#\	.	.
*	*	*	*Xped	*	*
.	.	.	16bb#X\JJ	.	.
=116	=116	=116	=116	=116	=116
*	*	*	*ped	*	*
4r	2.A^<\	8cccc#'/)	16cccc#\LL	.	.
.	.	.	16ccc#\	.	.
.	.	8r	16ccc#\	.	.
.	.	.	16ccc#\	.	.
8cc#L 8a 8e'</	.	(>8aaa/L	16aaa\	.	.
.	.	.	16aa\JJ	.	.
8ddJ 8a 8e'</	.	8fff#'/J)	16fff#\LL	.	.
.	.	.	16ff#\	.	.
8r	.	8r	16ff#\	.	.
.	.	.	16ff#\	.	.
8r	.	(>8ggg#/L	16eee\	.	.
*	*	*	*Xped	*	*
.	.	.	16ee\JJ	.	.
=117	=117	=117	=117	=117	=117
*	*	*	*ped	*	*
4r	2.A^<\	8fff#'/J)	16fff#\LL	.	.
.	.	.	16ff#\	.	.
.	.	8r	16ff#\	.	.
.	.	.	16ff#\	.	.
8ddL 8b 8e'</	.	(>8ggg#/L	16ggg#\	.	.
.	.	.	16gg#\JJ	.	.
8cc#J 8a 8e'</	.	8aaa'/J)	16aaa\LL	.	.
.	.	.	16aa\	.	.
8r	.	8r	16aa\	.	.
.	.	.	16aa\	.	.
8r	.	8r	16aa\	.	.
*	*	*	*Xped	*	*
.	.	.	16aa\JJ	.	.
!!LO:LB:g=original
=118	=118	=118	=118	=118	=118
*	*	*	*ped	*	*
4r	2.A^<\	8eee/	16eee\LL	.	.
.	.	.	16ee\	.	.
.	.	8r	16ee\	.	.
.	.	.	16ee\	.	.
8cc#L 8a 8e'</	.	(>8eee/L	16eee\	.	.
.	.	.	16ee\JJ	.	.
8ddJ 8g# 8e'</	.	8fff#'/J)	16fff#\LL	.	.
.	.	.	16ff#\	.	.
8r	.	8r	16ff#\	.	.
.	.	.	16ff#\	.	.
8r	.	(>8ggg#/L	16ggg#\	.	.
*	*	*	*Xped	*	*
.	.	.	16gg#\JJ	.	.
=119	=119	=119	=119	=119	=119
*	*	*	*ped	*	*
4r	2.A^<\	8aaa'/J)	16aaa\LL	.	.
.	.	.	16aa\	.	.
.	.	8r	16aa\	.	.
.	.	.	16aa\	.	.
8cc#L 8gn 8e'</	.	(>8aaa#X/L	16aaa#\	.	.
.	.	.	16aa#X\JJ	.	.
8ddJ 8g#X 8e'</	.	8bbb'/J)	16bbb\LL	.	.
.	.	.	16bb\	.	.
8r	.	8r	16bb\	.	.
.	.	.	16bb\	.	.
!	!	!LO:TX:t=P:problem=cross-measure beam	!	!	!
8r	.	(>8bbb#X/	16bbb#\	.	.
*	*	*	*Xped	*	*
.	.	.	16bb#X\JJ	.	.
=120	=120	=120	=120	=120	=120
*	*	*	*ped	*	*
4r	2.A^<\	8cccc#'/)	16cccc#\LL	.	.
.	.	.	16ccc#\	.	.
.	.	8r	16ccc#\	.	.
.	.	.	16ccc#\	.	.
8cc#L 8a 8e'</	.	(>8bbbn/L	16bbbn\	.	.
.	.	.	16bbn\JJ	.	.
8cc#J 8a 8e'</	.	8aaa'/J)	16aaa\LL	.	.
.	.	.	16aa\	.	.
8r	.	8r	16aa\	.	.
.	.	.	16aa\	.	.
8r	.	(8eee/L	16eee\	.	.
*	*	*	*Xped	*	*
.	.	.	16ee\JJ	.	.
=121	=121	=121	=121	=121	=121
.	.	(<8qggg#/	.	.	.
*	*	*	*ped	*	*
4r	2.A^<\	8fff#'/J))	16fff#\LL	.	.
.	.	.	16ff#\	.	.
.	.	8r	16ff#\	.	.
.	.	.	16ff#\	.	.
8ddL 8g# 8e'</	.	(8eee/L	16eee\	.	.
.	.	.	16ee\JJ	.	.
.	.	(<8qggg#/	.	.	.
8ddJ 8g# 8e'</	.	8fff#'/J))	16fff#\LL	.	.
.	.	.	16ff#\	.	.
8r	.	8r	16ff#\	.	.
.	.	.	16ff#\	.	.
8r	.	8eee'/	16eee\	.	.
*	*	*	*Xped	*	*
.	.	.	16ee\JJ	.	.
!!LO:LB:g=original
=122	=122	=122	=122	=122	=122
*	*	*	*ped	*	*
4r	2.A^<\	8eee'/	16eee\LL	.	.
.	.	.	16ee\	.	.
.	.	8r	16ee\	.	.
.	.	.	16ee\	.	.
8cc#L 8a 8e'</	.	8eee/L	16eee\	.	.
.	.	.	16ee\JJ	.	.
8ddJ 8g# 8e'</	.	8fff#'/J	16fff#\LL	.	.
.	.	.	16ff#\	.	.
8r	.	8r	16ff#\	.	.
.	.	.	16ff#\	.	.
8r	.	8ggg#/	16ggg#\	.	.
*	*	*	*Xped	*	*
.	.	.	16gg#\JJ	.	.
=123	=123	=123	=123	=123	=123
*	*	*	*ped	*	*
4r	2.A^<\	8aaa'/	16aaa\LL	.	.
.	.	.	16aa\	.	.
.	.	8r	16aa\	.	.
.	.	.	16aa\	.	.
8cc#L 8gn 8e'</	.	8aaa#X/L	16aaa#\	.	.
.	.	.	16aa#X\JJ	.	.
8ddJ 8g#X 8e'</	.	8bbb'/J	16bbb\LL	.	.
.	.	.	16bb\	.	.
8r	.	8r	16bb\	.	.
.	.	.	16bb\	.	.
!	!	!LO:TX:t=P:problem=cross-measure beam	!	!	!
8r	.	8bbb#X/	16bbb#\	.	.
*	*	*	*Xped	*	*
.	.	.	16bb#X\JJ	.	.
=124	=124	=124	=124	=124	=124
*	*	*	*ped	*	*
4r	2.A^<\	8cccc#'/	16cccc#\LL	.	.
.	.	.	16ccc#\	.	.
.	.	8r	16ccc#\	.	.
.	.	.	16ccc#\	.	.
8cc#L 8a 8e'</	.	8aaa/L	16aaa\	.	.
.	.	.	16aa\JJ	.	.
8ddJ 8a 8e'</	.	8fff#'/J	16fff#\LL	.	.
.	.	.	16ff#\	.	.
8r	.	8r	16ff#\	.	.
.	.	.	16ff#\	.	.
8r	.	8ggg#/L	16eee\	.	.
*	*	*	*Xped	*	*
.	.	.	16ee\JJ	.	.
=125	=125	=125	=125	=125	=125
*	*	*	*ped	*	*
4r	2.A^<\	8fff#'/J	16fff#\LL	.	.
.	.	.	16ff#\	.	.
.	.	8r	16ff#\	.	.
.	.	.	16ff#\	.	.
8ddL 8b 8e'</	.	8ggg#/L	16ggg#\	.	.
.	.	.	16gg#\JJ	.	.
8ddJ 8b 8e'</	.	8fff#'/J	16fff#\LL	.	.
.	.	.	16ff#\	.	.
8r	.	8r	16ff#\	.	.
.	.	.	16ff#\	.	.
8r	.	8ggg#'/	16ggg#\	.	.
*	*	*	*Xped	*	*
.	.	.	16gg#\JJ	.	.
!!LO:LB:g=original
=126	=126	=126	=126	=126	=126
*	*	*ped	*	*	*
4r	2.A^<\	8aaa'/	16aaa\LL	.	.
.	.	.	16aa\	.	.
.	.	8r	16aa\	.	.
.	.	.	16aa\	.	.
8r	.	8r	16aa\	.	.
*	*	*Xped	*	*	*
.	.	.	16aa\JJ	.	.
*	*	*ped	*	*	*
(<4.cc# 4.a 4.f#/	.	8aaa'/	16aaa\LL	.	.
.	.	.	16aa\	.	.
.	.	8r	16aa\	.	.
.	.	.	16aa\	.	.
.	.	8r	16aa\	.	.
*	*	*Xped	*	*	*
.	.	.	16aa\JJ	.	.
*v	*v	*	*	*	*
=127	=127	=127	=127	=127
*	*	*ped	*	*
4.cc# 4.a 4.e/	8aaa'/	16aaa\LL	.	.
.	.	16aa\	.	.
.	8r	16aa\	.	.
.	.	16aa\	.	.
.	8r	16aa\	.	.
*	*	*Xped	*	*
.	.	16aa\JJ	.	.
*	*	*ped	*	*
4.a 4.f# 4.d/)	8aaa'/	16aaa\LL	.	.
.	.	16aa\	.	.
.	8r	16aa\	.	.
.	.	16aa\	.	.
.	8r	16aa\	.	.
*	*	*Xped	*	*
.	.	16aa\JJ	.	.
*	*v	*v	*	*
=128	=128	=128	=128
*	*ped	*	*
4.a 4.c# 4.A/	(>16aaaLL 16aa\	.	.
.	16eee\	.	.
.	16aaa 16aa\	.	.
.	16eee\	.	.
.	16aaa 16aa\	.	.
.	16eee\JJ	.	.
8A'/L	16aaaLL 16aa\	.	.
.	16eee\	.	.
8A'/	16aaa 16aa\	.	.
.	16eee\	.	.
8A'/J	16aaa 16aa\	.	.
.	16eee\JJ)	.	.
=129	=129	=129	=129
4r	(>16aaaLL 16aa\	.	.
.	16eee\	.	.
.	16aaa 16aa\	.	.
.	16eee\	.	.
8r	16aaa 16aa\	.	.
.	16eee\JJ	.	.
8A'/L	16aaaLL 16aa\	.	.
.	16eee\	.	.
8A'/	16aaa 16aa\	.	.
.	16eee\	.	.
8A'/J	16aaa 16aa\	.	.
*	*Xped	*	*
.	16eee\JJ)	.	.
!!LO:LB:g=original
=130	=130	=130	=130
*	*ped	*	*
4r	(>16aaaLL 16aa\	.	.
.	16eee\	.	.
.	16aaa 16aa\	.	.
.	16eee\	.	.
8r	16aaa 16aa\	.	.
.	16eee\JJ	.	.
8A/L	16aaaLL 16aa\	.	.
.	16eee\	.	.
8A/	16aaa 16aa\	.	.
.	16eee\	.	.
8A/J	16aaa 16aa\	.	.
.	16eee\JJ)	.	.
=131	=131	=131	=131
4r	(>16aaaLL 16aa\	.	.
.	16eee\	.	.
.	16aaa 16aa\	.	.
.	16eee\	.	.
8r	16aaa 16aa\	.	.
.	16eee\JJ	.	.
8A/L	16aaaLL 16aa\	.	.
.	16eee\	.	.
8A/	16aaa 16aa\	.	.
.	16eee\	.	.
8A/J	16aaa 16aa\	.	.
.	16eee\JJ)	.	.
=132	=132	=132	=132
4r	(>16aaaLL 16aa\	.	.
.	16eee\	.	.
.	16aaa 16aa\	.	.
.	16eee\	.	.
8r	16aaa 16aa\	.	.
.	16eee\JJ	.	.
8A/L	16aaaLL 16aa\	.	.
.	16eee\	.	.
8A/	16aaa 16aa\	.	.
.	16eee\	.	.
8A/J	16aaa 16aa\	.	.
.	16eee\JJ)	.	.
!!LO:PB:g=original
=133	=133	=133	=133
4r	(>16aaaLL 16aa\	.	.
.	16eee\	.	.
.	16aaa 16aa\	.	.
.	16eee\	.	.
8r	16aaa 16aa\	.	.
.	16eee\JJ	.	.
8A/L	16aaaLL 16aa\	.	.
.	16eee\	.	.
8A/	16aaa 16aa\	.	.
.	16eee\	.	.
8A/J	16aaa 16aa\	.	.
*	*Xped	*	*
.	16eee\JJ)	.	.
=134	=134	=134	=134
*	*ped	*	*
4a/	(>16aaaLL 16aa\	.	.
.	16eee\	.	.
.	16aaa 16aa\	.	.
.	16eee\	.	.
8r	16aaa 16aa\	.	.
.	16eee\JJ	.	.
8A/L	16aaaLL 16aa\	.	.
.	16eee\	.	.
8A/	16aaa 16aa\	.	.
.	16eee\	.	.
8A/J	16aaa 16aa\	.	.
.	16eee\JJ)	.	.
=135	=135	=135	=135
4a/	(>16aaaLL 16aa\	.	.
.	16eee\	.	.
.	16aaa 16aa\	.	.
.	16eee\	.	.
8r	16aaa 16aa\	.	.
.	16eee\JJ	.	.
8A/L	16aaaLL 16aa\	.	.
.	16eee\	.	.
8A/	16aaa 16aa\	.	.
.	16eee\	.	.
8A/J	16aaa 16aa\	.	.
*	*Xped	*	*
.	16eee\JJ)	.	.
!!LO:LB:g=original
=136	=136	=136	=136
*	*ped	*	*
4a^</	(>16aaaLL 16aa\	.	.
.	16eee\	.	.
.	16aaa 16aa\	.	.
.	16eee\	.	.
8r	16aaa 16aa\	.	.
.	16eee\JJ	.	.
8A/L	16aaaLL 16aa\	.	.
.	16eee\	.	.
8A/	16aaa 16aa\	.	.
.	16eee\	.	.
8A/J	16aaa 16aa\	.	.
.	16eee\JJ)	.	.
=137	=137	=137	=137
4a^</	(>16aaaLL 16aa\	.	.
.	16eee\	.	.
.	16aaa 16aa\	.	.
.	16eee\	.	.
8r	16aaa 16aa\	.	.
.	16eee\JJ	.	.
8A/L	16aaaLL 16aa\	.	.
.	16eee\	.	.
8A/	16aaa 16aa\	.	.
.	16eee\	.	.
8A/J	16aaa 16aa\	.	.
.	16eee\JJ)	.	.
=138	=138	=138	=138
4a^</	[>2.aaa [<2.aa\	.	.
8r	.	.	.
4r	.	.	.
8r	.	.	.
=139	=139	=139	=139
2.r	2.aaa_> 2.aa\_<	.	.
=140	=140	=140	=140
*	*Xped	*	*
2.r	4aaa] 4aa\]	.	.
*	*X8va	*	*
.	8r	.	.
.	4r	.	.
.	8r	.	.
=141	=141	=141	=141
2.r;	2.r;	.	.
*clefF4	*	*	*
=142||	=142||	=142||	=142||
*k[]	*k[]	*	*
*	*	*	*
*M4/4	*M4/4	*	*
*met(c)	*met(c)	*	*
!LO:TX:t=P:problem=mixed beam	!LO:TX:a:B:t=MAEEV.	!	!
*	*tremolo	*	*
8.DD#X/L 8.DDD#X^^</	32aaLLL 32ff#X 32cc\	ff	.
.	32a\	.	.
.	32aa 32ff# 32cc\	.	.
.	32a\	.	.
.	32aa 32ff# 32cc\	.	.
.	32a\	.	.
16A\Jk	32aa 32ff# 32cc\	.	.
.	32a\	.	.
(>2c^^\	32aa 32ff# 32cc\	.	.
.	32a\	.	.
.	32aa 32ff# 32cc\	.	.
.	32a\	.	.
.	32aa 32ff# 32cc\	.	.
.	32a\	.	.
.	32aa 32ff# 32cc\	.	.
.	32a\JJJ	.	.
.	32aaLLL 32ff# 32cc\	.	.
.	32a\	.	.
.	32aa 32ff# 32cc\	.	.
.	32a\	.	.
.	32aa 32ff# 32cc\	.	.
.	32a\	.	.
.	32aa 32ff# 32cc\	.	.
.	32a\	.	.
16qqdn/LL	.	.	.
16qqc/JJ	.	.	.
8.B\L)	32aa 32ff# 32cc\	.	.
.	32a\	.	.
.	32aa 32ff# 32cc\	.	.
.	32a\	.	.
.	32aa 32ff# 32cc\	.	.
.	32a\	.	.
16A\Jk	32aa 32ff# 32cc\	.	.
.	32a\JJJ	.	.
=143	=143	=143	=143
8.f#XL 8.D#X^^>\	32aaLLL 32ff#X 32cc\	.	.
.	32a\	.	.
.	32aa 32ff# 32cc\	.	.
.	32a\	.	.
.	32aa 32ff# 32cc\	.	.
.	32a\	.	.
16A\Jk	32aa 32ff# 32cc\	.	.
.	32a\	.	.
(>2c^^\	32aa 32ff# 32cc\	.	.
.	32a\	.	.
.	32aa 32ff# 32cc\	.	.
.	32a\	.	.
.	32aa 32ff# 32cc\	.	.
.	32a\	.	.
.	32aa 32ff# 32cc\	.	.
.	32a\JJJ	.	.
.	32aaLLL 32ff# 32cc\	.	.
.	32a\	.	.
.	32aa 32ff# 32cc\	.	.
.	32a\	.	.
.	32aa 32ff# 32cc\	.	.
.	32a\	.	.
.	32aa 32ff# 32cc\	.	.
.	32a\	.	.
16qqdn/LL	.	.	.
16qqc/JJ	.	.	.
8.B\L)	32aa 32ff# 32cc\	.	.
.	32a\	.	.
.	32aa 32ff# 32cc\	.	.
.	32a\	.	.
.	32aa 32ff# 32cc\	.	.
.	32a\	.	.
16A\Jk	32aa 32ff# 32cc\	.	.
.	32a\JJJ	.	.
=144	=144	=144	=144
8.f#XL 8.D#X^^>\	32aaLLL 32ff#X 32cc\	.	.
.	32a\	.	.
.	32aa 32ff# 32cc\	.	.
.	32a\	.	.
.	32aa 32ff# 32cc\	.	.
.	32a\	.	.
16A\Jk	32aa 32ff# 32cc\	.	.
.	32a\	.	.
!LO:TUP:a:problem=klamra łukowa	!	!	!
12c\L	32aa 32ff# 32cc\	.	.
.	32a\	.	.
.	32aa 32ff# 32cc\	.	.
12B\	.	.	.
.	32a\	.	.
.	32aa 32ff# 32cc\	.	.
.	32a\	.	.
12A\J	.	.	.
.	32aa 32ff# 32cc\	.	.
.	32a\JJJ	.	.
8.f#L 8.D#^^>\	32cccLLL 32aa 32ff#\	.	.
.	32cc\	.	.
.	32ccc 32aa 32ff#\	.	.
.	32cc\	.	.
.	32ccc 32aa 32ff#\	.	.
.	32cc\	.	.
16A\Jk	32ccc 32aa 32ff#\	.	.
.	32cc\	.	.
!LO:TUP:a:problem=klamra łukowa	!	!	!
12c\L	32ccc 32aa 32ff#\	.	.
.	32cc\	.	.
.	32ccc 32aa 32ff#\	.	.
12B\	.	.	.
.	32cc\	.	.
.	32ccc 32aa 32ff#\	.	.
.	32cc\	.	.
12A\J	.	.	.
.	32ccc 32aa 32ff#\	.	.
.	32cc\JJJ	.	.
=145	=145	=145	=145
8.f#XL 8.D#X\	32fff#XLLL 32ccc 32aa\	.	.
.	32ff#X\	.	.
.	32fff# 32ccc 32aa\	.	.
.	32ff#\	.	.
.	32fff# 32ccc 32aa\	.	.
.	32ff#\	.	.
16A\Jk	32fff# 32ccc 32aa\	.	.
.	32ff#\	.	.
[>4c\	32fff# 32ccc 32aa\	.	.
.	32ff#\	.	.
.	32fff# 32ccc 32aa\	.	.
.	32ff#\	.	.
.	32fff# 32ccc 32aa\	.	.
.	32ff#\	.	.
.	32fff# 32ccc 32aa\	.	.
.	32ff#X\JJJ	.	.
*	*Xtremolo	*	*
*Xtuplet	*Xtuplet	*	*
!	!LO:TX:b:t=pesante. riten.	!	!
12c\L]	12.fff#L 12.ccc 12.aa^>\	.	.
12c^>\	.	.	.
.	24fff#K 24ccc 24aa 24ff#^>\	.	.
12c^>\J	12fff#J 12ccc 12aa 12ff#^>\	.	.
12c^>\L	12fff#L 12ccc 12aa 12ff#^>\	.	.
16qqB/LL	.	.	.
16qqc/	.	.	.
16qqd/	.	.	.
16qqc/JJ	.	.	.
12B^>\	12fff# 12ccc 12aa 12ff#^>\	.	.
12A^>\J	12fff#J 12ccc 12aa 12ff#^>\	.	.
!!LO:LB:g=original
=146||	=146||	=146||	=146||
*	*	*^	*
*M3/4	*M3/4	*	*	*
8e 8E\	8eee 8bb 8gg#X 8ee\	sf	.	.
8r	8r	.	.	.
4r;>	4r;>	.	.	.
*	*^	*	*	*
!	!	!	!LO:DY:a	!	!
!	!LO:TX:a:B:t=ANDANTE.	!	!LO:HP:a	!	!
4r	[>4ee/	4r	sf >	.	.
=147	=147	=147	=147	=147	=147
!	!	!	!	!LO:DY:b=2	!
*	*	*ped	*	*	*
4e 4A\	2ee/]	4cc 4a\	.	p	.
4r	.	4r	.	.	.
.	(<8qff/	.	.	.	.
4r	[>4ee/)	4r	]	.	.
*	*	*	*v	*v	*
=148	=148	=148	=148	=148
4e\	4ee/]	4b 4g#X\	.	.
*	*	*Xped	*	*
.	.	.	.	.
4r	4r	4ryy	.	.
!	!	!	!LO:DY:a	!
!	!	!	!LO:HP:a	!
4r	[>4ee/	4r	sf >	.
=149	=149	=149	=149	=149
*	*	*ped	*	*
4e 4A\	2ee/]	4cc 4a\	.	.
4r	.	4r	.	.
.	(<8qff/	.	]	.
4r	[>4ee/)	4r	.	.
=150	=150	=150	=150	=150
*	*	*	*^	*
4e\	4ee/]	4b 4g#X\	.	.	.
*	*	*Xped	*	*	*
.	.	.	.	.	.
4r	4ryy	4r	.	.	.
!	!	!	!LO:DY:a	!	!
!	!	!	!LO:HP:a	!	!
4r	[>4e/	4r	sf >	.	.
=151	=151	=151	=151	=151	=151
*	*	*ped	*	*	*
!	!	!	!	!LO:DY:b=2:rj	!
4AA 4AAA'/	2e/]	4c 4A\	.	pp	.
4r	.	4r	.	.	.
.	(<8qf/	.	]	.	.
4C 4CC'/	[>4e/)	4r	.	.	.
*	*	*	*v	*v	*
=152	=152	=152	=152	=152
4E 4EE'/	4e/]	4B 4G#X\	.	.
*	*	*Xped	*	*
.	.	.	.	.
4r	4ryy	4r	.	.
!	!	!	!LO:DY:a	!
!	!	!	!LO:HP:a	!
4r	[>4e/	4r	sf >	.
=153	=153	=153	=153	=153
*	*	*ped	*	*
4AA 4AAA'/	2e/]	4c 4A\	.	.
4r	.	4r	.	.
.	(<8qf/	.	]	.
4C 4CC'/	[4e/)	4r	.	.
!!LO:LB:g=original
=154	=154	=154	=154	=154
4E 4EE'/	4e/]	4B 4G#X\	.	.
*	*	*Xped	*	*
.	.	.	.	.
4r;>	4r;>	4ryy	.	.
!	!LO:TX:a:t=molto più lento.	!	!	!
4r	8.f/L	4ryy	>	.
.	16e/Jk	.	]	.
*	*v	*v	*	*
=155	=155	=155	=155
2.r	2.e/	.	.
=156	=156	=156	=156
2.d\	(<2e/	.	.
.	8.f/L	>	.
.	16e/Jk)	]	.
=157	=157	=157	=157
2.r	2.e/	.	.
=158	=158	=158	=158
2.c\	(<2e/	.	.
.	8.f/L	>	.
.	16e/Jk)	]	.
=159	=159	=159	=159
2.r	2.e/	.	.
=160	=160	=160	=160
2.B\	(<2e/	.	.
.	8.f/L	>	.
.	16e/Jk)	]	.
=161	=161	=161	=161
!	!LO:TX:a:t=rall.	!	!
2.r	2e/	.	.
.	(<8qqd#X/L	.	.
.	8qqe/	.	.
.	8qqg/J)	.	.
.	(<8.f;>/L	.	.
.	16e/Jk)	.	.
!!LO:PB:g=original
=162||	=162||	=162||	=162||
*M3/4	*M3/4	*	*
!	!LO:TX:a:B:t=ADAGIO CANTABILE.	!LO:DY:rj	!
(>4e 4A\	4ee\	pp	.
4r	4ee\	.	.
!	!	!LO:HP:b=2	!
8.f\L	4ee\	>]	.
16e\Jk)	.	.	.
=163	=163	=163	=163
(>4e 4A\	4dd\	.	.
.	8qqee/L	.	.
.	8qqdd/J	.	.
4r	4cc\	.	.
!	!	!LO:HP:b=2	!
8.f\L	4b\	>]	.
16e\Jk)	.	.	.
=164	=164	=164	=164
(>4e 4A\	4cc\	.	.
4r	4b\	.	.
!	!	!LO:HP:b=2	!
8.f\L	4a/	>]	.
16e\Jk)	.	.	.
=165	=165	=165	=165
(>4e 4A\	2b\	.	.
4r	.	.	.
!	!	!LO:HP:b=2	!
8.f\L	4r	>]	.
16e\Jk)	.	.	.
=166	=166	=166	=166
(>4e 4A\	8ee\	.	.
.	8r	.	.
4r	4ee^>\	.	.
!	!	!LO:HP:b=2	!
8.f\L	4ee\	>]	.
16e\Jk)	.	.	.
!!LO:LB:g=original
=167	=167	=167	=167
(>4e 4A\	4dd\	.	.
.	8qqee/L	.	.
.	8qqdd/J	.	.
4r	4cc\	.	.
!	!	!LO:HP:b=2	!
8.f\L	4b\	>]	.
16e\Jk)	.	.	.
=168	=168	=168	=168
(>4e 4A\	4cc\	.	.
4r	4dd\	.	.
!	!	!LO:HP:b=2	!
8.f\L	4b\	>]	.
16e\Jk)	.	.	.
=169	=169	=169	=169
(>4e 4A\	2a/	.	.
4r	.	.	.
!	!	!LO:HP:b=2	!
8.f\L	4r	>]	.
16e\Jk)	.	.	.
=170	=170	=170	=170
!	!	!LO:DY:rj	!
(>4e 4A\	4ee\	f	.
4r	4ee\	.	.
!	!	!LO:HP:b=2	!
8.f\L	4ee\	>]	.
16e\Jk)	.	.	.
=171	=171	=171	=171
(>4e 4A\	4dd\	.	.
.	8qqee/L	.	.
.	8qqdd/J	.	.
4r	4cc\	.	.
!	!	!LO:HP:b=2	!
8.f\L	4b\	>]	.
16e\Jk)	.	.	.
=172	=172	=172	=172
(>4e 4A\	4cc\	.	.
4r	4b\	.	.
!	!	!LO:HP:b=2	!
8.f\L	4a/	>]	.
16e\Jk)	.	.	.
!!LO:LB:g=original
=173	=173	=173	=173
(>4e 4A\	2b\	.	.
4r	.	.	.
!	!	!LO:HP:b=2	!
8.f\L	4r	>]	.
16e\Jk)	.	.	.
=174	=174	=174	=174
(>4e 4A\	4ee\	.	.
4r	4ee\	.	.
!	!	!LO:HP:b=2	!
8.f\L	4ee\	>]	.
16e\Jk)	.	.	.
=175	=175	=175	=175
(>4e 4A\	4dd\	.	.
.	8qqee/L	.	.
.	8qqdd/J	.	.
4r	4cc\	.	.
!	!	!LO:HP:b=2	!
8.f\L	4b\	>]	.
16e\Jk)	.	.	.
=176	=176	=176	=176
(>4e 4A\	4cc\	.	.
4r	4dd\	.	.
!	!	!LO:HP:b=2	!
8.f\L	4b\	>]	.
16e\Jk)	.	.	.
=177	=177	=177	=177
*	*^	*	*
4e 4A\	2a/	2ryy	.	.
4r	.	.	.	.
4r	4b/	(>8.f\L	.	.
.	.	16e\Jk)	.	.
=178	=178	=178	=178	=178
*	*	*	*^	*
(>4G 4GG\	4cc/	4e\	.	.	.
4r	4cc/	4r	.	<	.
!	!	!	!LO:HP:b=2	!	!
8.A\L	4cc#X/	4r	>	.	.
16G\Jk)	.	.	]]	.	.
=179	=179	=179	=179	=179	=179
(>4G 4GG\	2dd/	4f\	.	.	.
4r	.	4r	.	[	.
!	!	!	!LO:HP:b=2	!	!
8.A\L	4gg/	4r	>	.	.
16G\Jk)	.	.	]]	.	.
!!LO:LB:g=original
=180	=180	=180	=180	=180	=180
(>4G 4GG\	4cc/	4e\	.	.	.
4r	4cc/	4r	.	<	.
!	!	!	!LO:HP:b=2	!	!
8.A\L	4cc#X/	4r	>	.	.
16G\Jk)	.	.	]]	.	.
=181	=181	=181	=181	=181	=181
(>4G 4GG\	2dd/	4f\	.	.	.
4r	.	4r	.	[	.
!	!	!	!LO:HP:b=2	!	!
8.A\L	4gg/	4r	>	.	.
16G\Jk)	.	.	]]	.	.
*	*	*	*v	*v	*
=182	=182	=182	=182	=182
4c 4C\	(>8ee/	8g\	]	.
.	8r	8ryy	.	.
4c\	4ee^>/	4g\	.	.
4c: 4F:\	8.gg^>:/L	4a:\	.	.
.	16ff/Jk)	.	.	.
=183	=183	=183	=183	=183
4c 4C\	(>[<4ee/	4g\	.	.
4r	8ee/L]	4r	.	.
.	8cc/J	.	.	.
4c 4F\	8cc^>/L	4a\	.	.
.	8dd/J)	.	.	.
=184	=184	=184	=184	=184
4c 4C\	(>8ee'/	8g\	.	.
.	8r	8ryy	.	.
4c\	4ee^>/	4g\	.	.
4c 4F\	8.gg:/L	4a:\	.	.
.	16ff/Jk)	.	.	.
=185	=185	=185	=185	=185
4c 4C\	(>2ee/	4g\	.	.
4r	.	4r	.	.
!	!	!	!LO:HP:a	!
4r	8.ee/L	4r	>	.
.	16dd/Jk)	.	]]	.
*	*v	*v	*	*
!!LO:LB:g=original
=186	=186	=186	=186
2A 2AA\	4cc: 4e:/	.	.
.	4dd: 4f:/	.	.
4A-X 4AA-X\	4dd#X: 4f#X:/	.	.
=187	=187	=187	=187
2G 2GG\	2ee: 2g:\	.	.
4r;>	8.ffL 8.a;>\	.	.
.	16eeJk 16g\	.	.
=188	=188	=188	=188
2G 2GG\	(>4dd 4f\	>	.
.	4dd 4f\	.	.
4r;>	8.eeL 8.g;>\	.	.
.	16ddJk 16f\)	]	.
=189	=189	=189	=189
4A 4AA\	[>4cc [<4e/	.	.
4r	(<8cc]L 8e/]	.	.
.	8e/	.	.
4r	8.a/	.	.
.	16g/Jk)	.	.
=190	=190	=190	=190
!	!	!LO:HP:a	!
.	(>8qqc\L	<	.
.	8qqf#X\J)	.	.
4A 4AA\	4cc/	.	.
4r	4cc/	.	.
.	(>8qqc\L	.	.
.	8qqfn\J)	.	.
4A-X 4AA-X\	4dd/	[	.
=191	=191	=191	=191
.	(>8qqc\L	.	.
.	8qqe\	.	.
.	8qqg\J)	.	.
*	*^	*	*
2G 2GG\	2ee/	4r	.	.
.	.	4g\	.	.
.	(<8qgg/	.	ff	.
4r;	8.ff;>/L)	8.a\L	.	.
.	16ee/Jk	16g\Jk	.	.
*	*v	*v	*	*
!!LO:PB:g=original
=192	=192	=192	=192
*^	*	*	*
4BB 4BBB/	1ryy	4dd 4f/	.	.
4g\	.	4ee\	.	.
4f\	.	4dd\	.	.
4g\	.	4ee\	.	.
4f\	1ryy	4dd\	.	.
4g\	.	4ee\	.	.
8f\L	.	8dd\L	.	.
8g\	.	8ee\	.	.
8f\	.	8dd\	.	.
8g\J	.	8ee\J	.	.
8f\L	1ryy	8dd\L	.	.
8g\	.	8ee\	.	.
8f\	.	8dd\	.	.
8g\J	.	8ee\J	.	.
!	!	!LO:TX:a:t=stringendo.	!	!
16f\LL	.	16dd\LL	.	.
16g\	.	16ee\	.	.
16f\	.	16dd\	.	.
16g\JJ	.	16ee\JJ	.	.
16f\LL	.	16dd\LL	.	.
16g\	.	16ee\	.	.
16f\	.	16dd\	.	.
16g\JJ	.	16ee\JJ	.	.
32f\LLL	1ryy	32dd\LLL	.	.
32g\	.	32ee\	.	.
32f\	.	32dd\	.	.
32g\JJJ	.	32ee\JJJ	.	.
32f\LLL	.	32dd\LLL	.	.
32g\	.	32ee\	.	.
32f\	.	32dd\	.	.
32g\JJJ	.	32ee\JJJ	.	.
32f\LLL	.	32dd\LLL	.	.
32g\	.	32ee\	.	.
32f\	.	32dd\	.	.
32g\JJJ	.	32ee\JJJ	.	.
32f\LLL	.	32dd\LLL	.	.
32g\	.	32ee\	.	.
32f\	.	32dd\	.	.
32g\JJJ	.	32ee\JJJ	.	.
32f\LLL	.	32dd\LLL	.	.
32g\	.	32ee\	.	.
32f\	.	32dd\	.	.
32g\JJJ	.	32ee\JJJ	.	.
!!LO:LB:g=original
32f\LLL	.	32dd\LLL	.	.
32g\	.	32ee\	.	.
32f\	.	32dd\	.	.
32g\JJJ	.	32ee\JJJ	.	.
32f\LLL	.	32dd\LLL	.	.
32g\	.	32ee\	.	.
32f\	.	32dd\	.	.
32g\JJJ	.	32ee\JJJ	.	.
32f\LLL	.	32dd\LLL	.	.
32g\	.	32ee\	.	.
32f\	.	32dd\	.	.
32g\JJJ	.	32ee\JJJ	.	.
32f\LLL	4ryy	32dd\LLL	.	.
32g\	.	32ee\	.	.
32f\	.	32dd\	.	.
32g\JJJ	.	32ee\JJJ	.	.
32f\LLL	.	32dd\LLL	.	.
32g\	.	32ee\	.	.
32f\	.	32dd\	.	.
32e\JJJ	.	32cc#X\JJJ	.	.
4f/	2B 2G\	8dd~\L	.	.
*	*	*Xtuplet	*	*
!	!	!LO:TX:a:t=P:problem=w źródle 10 kolejnych nut ma wartość 32	!	!
.	.	(>64g\LLL	<	.
.	.	64dd\	.	.
.	.	64gg\	.	.
.	.	64ddd\	.	.
.	.	96ggg\	[ >	.
.	.	96ddd\	.	.
.	.	96gg\	.	.
.	.	96gg\	.	.
.	.	96dd\	.	.
.	.	96g\JJJJ)	]	.
4g/	.	8ee~\L	.	.
!	!	!LO:TX:a:t=P:problem=w źródle 10 kolejnych nut ma wartość 32	!	!
.	.	(>64g\LLL	<	.
.	.	64ee\	.	.
.	.	64gg\	.	.
.	.	64eee\	.	.
.	.	96ggg\	[ >	.
.	.	96eee\	.	.
.	.	96gg\	.	.
.	.	96gg\	.	.
.	.	96ee\	.	.
.	.	96g\JJJJ)	]	.
8.g~/L	4G\	8.ee~\L	.	.
16f/Jk	.	16dd\Jk	.	.
!!LO:LB:g=original
=193	=193	=193	=193	=193
(>4e/	4c\	2cc\	.	.
!	!	!LO:TX:a:t=rall.	!	!
!	!	!	!LO:HP:b=2	!
4e^>\	4ryy	.	<	.
8qqd#X/L	.	.	.	.
8qqe/	.	.	.	.
8qqg/J	.	.	.	.
!	!	!	!LO:HP:b=2	!
8.f\L	4ryy	4r	[>	.
16e\Jk)	.	.	]]	.
*v	*v	*	*	*
=194	=194	=194	=194
*	*^	*	*
*	*	*ped	*	*
!LO:TX:b:t=una corda.	!LO:TX:a:t=molto più lento.	!	!	!
!	!	!	!LO:DY:rj	!
8c: 8E: 8AA:\	8ee:/	8a: 8e:\	ppp	.
8r	8r	8r	.	.
4r	4ee/	4r	.	.
8qg/	.	.	.	.
!	!	!	!LO:HP:b=2	!
(>8.f\L	4ee/	4r	>	.
*	*	*Xped	*	*
16e\Jk)	.	.	]]	.
=195	=195	=195	=195	=195
*	*	*ped	*	*
!	!	!LO:TX:a:t=P:problem=w źródle arpeggio obejmuje tylko 8g# i 8e	!	!
8B: 8E: 8AA:\	4dd:/	8g#X: 8e:\	.	.
8r	.	8r	.	.
.	8qqee/L	.	.	.
.	8qqdd/J	.	.	.
4r	4cc/	4r	.	.
8qg/	.	.	.	.
!	!	!	!LO:HP:b=2	!
(>8.f\L	4b/	4r	>	.
*	*	*Xped	*	*
16e\Jk)	.	.	]]	.
=196	=196	=196	=196	=196
*	*	*ped	*	*
!	!	!LO:TX:a:t=P:problem=w źródle arpeggio obejmuje tylko 8e i 8c	!	!
8A: 8E: 8AA:\	4cc:/	8e: 8c:\	.	.
8r	.	8r	.	.
4r	4b/	4r	.	.
8qg/	.	.	.	.
!	!	!	!LO:HP:b=2	!
(>8.f\L	4a/	4r	>	.
*	*	*Xped	*	*
16e\Jk)	.	.	]]	.
=197	=197	=197	=197	=197
*	*	*ped	*	*
!	!	!LO:TX:a:t=P:problem=w źródle arpeggio obejmuje tylko 8g#, 8e i 8d	!	!
8A: 8E: 8AA:\	2b:/	8g#X: 8e: 8d:\	.	.
8r	.	8r	.	.
4r	.	4r	.	.
8qg/	.	.	.	.
!	!	!	!LO:HP:b=2	!
(>8.f\L	4re	4rb	>	.
*	*	*Xped	*	*
16e\Jk)	.	.	]]	.
=198	=198	=198	=198	=198
*	*	*ped	*	*
!	!	!LO:TX:a:t=P:problem=w źródle arpeggio obejmuje tylko 8a i 8e	!	!
8c: 8E: 8AA:\	(>8ee:/	8a: 8e:\	.	.
8r	8r	8r	.	.
4r	4ee^>/	4r	.	.
8qg/	.	.	.	.
!	!	!	!LO:HP:b=2	!
(>8.f\L	4ee/)	4r	>	.
*	*	*Xped	*	*
16e\Jk)	.	.	]]	.
!!LO:LB:g=original
=199	=199	=199	=199	=199
*	*	*ped	*	*
!	!	!LO:TX:a:t=P:problem=w źródle arpeggio obejmuje tylko 8g# i 8e	!	!
8B: 8E: 8AA:\	(>4dd:/	8g#X: 8e:\	.	.
8r	.	8r	.	.
.	8qqee/L	.	.	.
.	8qqdd/J	.	.	.
4r	4cc/	4r	.	.
8qg/	.	.	.	.
!	!	!	!LO:HP:b=2	!
(>8.f\L	4b/)	4r	>	.
*	*	*Xped	*	*
16e\Jk)	.	.	]]	.
=200	=200	=200	=200	=200
*^	*	*	*	*
*ped	*	*	*	*	*
(>4A/	2.E 2.AA\	(>4cc/	4a 4e\	.	.
2B/)	.	4dd/	4g#X 4e\	.	.
.	.	.	8qgn/	>	.
.	.	4b/)	8.f\L	.	.
*	*	*Xped	*	*	*
.	.	.	16e\Jk	]]	.
*v	*v	*	*	*	*
=201	=201	=201	=201	=201
4c: 4E: 4AA:\	2.a/	(<2e\	.	.
4r	.	.	.	.
.	.	8qg/	.	.
*	*	*ped	*	*
(<32AAA/LLL	.	8.f\L	.	.
32GGG#X/	.	.	.	.
32AAA/	.	.	.	.
32GGG#/JJJ	.	.	.	.
32AAA/LLL	.	.	.	.
32GGG#/	.	.	.	.
32AAA/	.	16e\Jk)	.	.
32GGG#/JJJ)	.	.	.	.
=202	=202	=202	=202	=202
*	*	*^	*	*
!	!	!	!	!LO:DY:rj:b=2	!
4AAA/	2.a/	(<2e\	4A\	sf	.
*	*	*	*Xped	*	*
.	.	.	.	.	.
4r	.	.	4ryy	.	.
.	.	8qg/	.	.	.
*	*	*	*ped	*	*
(<32AAA/LLL	.	8.f\L	4ryy	.	.
32GGG#X/	.	.	.	.	.
32AAA/	.	.	.	.	.
32GGG#/JJJ	.	.	.	.	.
32AAA/LLL	.	.	.	.	.
32GGG#/	.	.	.	.	.
32AAA/	.	16e\Jk)	.	.	.
32GGG#/JJJ)	.	.	.	.	.
=203	=203	=203	=203	=203	=203
!	!	!	!	!LO:DY:rj:b=2	!
4AAA/	2.a/	(<2e\	4A\	sf	.
*	*	*	*Xped	*	*
.	.	.	.	.	.
4r	.	.	4ryy	.	.
.	.	8qg/	.	.	.
*	*	*	*ped	*	*
(>32AAA/LLL	.	8.f\L	4ryy	.	.
32GGG#X/	.	.	.	.	.
32AAA/	.	.	.	.	.
32GGG#/JJJ	.	.	.	.	.
32AAA/LLL	.	.	.	.	.
32GGG#/	.	.	.	.	.
32AAA/	.	16e\Jk)	.	.	.
32GGG#/JJJ)	.	.	.	.	.
!!LO:LB:g=original
=204	=204	=204	=204	=204	=204
!	!	!	!	!LO:DY:rj:b=2	!
4AAA/	2.a/	(<2e\	4A\	sf	.
*	*	*	*Xped	*	*
.	.	.	.	.	.
4r	.	.	4ryy	.	.
.	.	8qg/	.	.	.
*	*	*	*ped	*	*
(<32AAA/LLL	.	8.f\L	4ryy	.	.
32GGG#X/	.	.	.	.	.
32AAA/	.	.	.	.	.
32GGG#/JJJ	.	.	.	.	.
32AAA/LLL	.	.	.	.	.
32GGG#/	.	.	.	.	.
32AAA/	.	16e\Jk)	.	.	.
32GGG#/JJJ)	.	.	.	.	.
*	*v	*v	*v	*	*
=205	=205	=205	=205
4AAA/	(>[>2.a [<2.A/	.	.
*	*Xped	*	*
.	.	.	.
4r	.	.	.
*	*ped	*	*
(<32AAA/LLL	.	.	.
32GGG#X/	.	.	.
32AAA/	.	.	.
32GGG#/JJJ	.	.	.
32AAA/LLL	.	.	.
32GGG#/	.	.	.
32AAA/	.	.	.
32GGG#/JJJ)	.	.	.
=206	=206	=206	=206
4AAA/	4a] 4A/]	.	.
*	*Xped	*	*
.	.	.	.
4r	4c/	.	.
*	*ped	*	*
!	!	!LO:DY:a:t=sempre ppp	!
(<32AAA/LLL	4e/	ppp	.
32GGG#X/	.	.	.
32AAA/	.	.	.
32GGG#/JJJ	.	.	.
32AAA/LLL	.	.	.
32GGG#/	.	.	.
32AAA/	.	.	.
32GGG#/JJJ)	.	.	.
=207	=207	=207	=207
4AAA/	4a/	.	.
*	*Xped	*	*
.	.	.	.
4r	4cc\	.	.
*	*ped	*	*
(<32AAA/LLL	4ee\	.	.
32GGG#X/	.	.	.
32AAA/	.	.	.
32GGG#/JJJ	.	.	.
32AAA/LLL	.	.	.
32GGG#/	.	.	.
32AAA/	.	.	.
32GGG#/JJJ)	.	.	.
=208	=208	=208	=208
4AAA/	4aa\	.	.
*	*Xped	*	*
.	.	.	.
4r	4ccc\	.	.
*	*ped	*	*
(<32AAA/LLL	4eee\)	.	.
32GGG#X/	.	.	.
32AAA/	.	.	.
32GGG#/JJ	.	.	.
*	*Xped	*	*
8AAA'/J)	.	.	.
!!LO:LB:g=original
=209	=209	=209	=209
*	*8va	*	*
*	*tremolo	*	*
*	*ped	*	*
2.c 2.A 2.E\	(>32aaa\LLL	.	.
.	32aa\	.	.
.	32aaa\	.	.
.	32aa\	.	.
.	32aaa\	.	.
.	32aa\	.	.
.	32aaa\	.	.
.	32aa\	.	.
.	32aaa\	.	.
.	32aa\	.	.
.	32aaa\	.	.
.	32aa\	.	.
.	32aaa\	.	.
.	32aa\	.	.
.	32aaa\	.	.
.	32aa\	.	.
.	32aaa\	.	.
.	32aa\	.	.
.	32aaa\	.	.
.	32aa\	.	.
.	32aaa\	.	.
.	32aa\	.	.
.	32aaa\	.	.
.	32aa\JJJ)	.	.
=210	=210	=210	=210
2.AAA^</	(>32aaa\LLL	.	.
.	32aa\	.	.
.	32aaa\	.	.
.	32aa\	.	.
.	32aaa\	.	.
.	32aa\	.	.
.	32aaa\	.	.
.	32aa\	.	.
.	32aaa\	.	.
.	32aa\	.	.
.	32aaa\	.	.
.	32aa\	.	.
.	32aaa\	.	.
.	32aa\	.	.
.	32aaa\	.	.
.	32aa\	.	.
.	32aaa\	.	.
.	32aa\	.	.
*	*Xped	*	*
.	32aaa\	.	.
.	32aa\	.	.
.	32aaa\	.	.
.	32aa\	.	.
.	32aaa\	.	.
.	32aa\JJJ)	.	.
=211	=211	=211	=211
*	*ped	*	*
2.c 2.A 2.E\	(>32aaa\LLL	.	.
.	32aa\	.	.
.	32aaa\	.	.
.	32aa\	.	.
.	32aaa\	.	.
.	32aa\	.	.
.	32aaa\	.	.
.	32aa\	.	.
.	32aaa\	.	.
.	32aa\	.	.
.	32aaa\	.	.
.	32aa\	.	.
.	32aaa\	.	.
.	32aa\	.	.
.	32aaa\	.	.
.	32aa\	.	.
.	32aaa\	.	.
.	32aa\	.	.
.	32aaa\	.	.
.	32aa\	.	.
.	32aaa\	.	.
.	32aa\	.	.
.	32aaa\	.	.
.	32aa\JJJ)	.	.
=212	=212	=212	=212
2.AAA^</	(>32aaa\LLL	.	.
.	32aa\	.	.
.	32aaa\	.	.
.	32aa\	.	.
.	32aaa\	.	.
.	32aa\	.	.
.	32aaa\	.	.
.	32aa\	.	.
.	32aaa\	.	.
.	32aa\	.	.
.	32aaa\	.	.
.	32aa\	.	.
.	32aaa\	.	.
.	32aa\	.	.
.	32aaa\	.	.
.	32aa\	.	.
.	32aaa\	.	.
.	32aa\	.	.
*	*Xped	*	*
.	32aaa\	.	.
.	32aa\	.	.
.	32aaa\	.	.
.	32aa\	.	.
.	32aaa\	.	.
.	32aa\JJJ)	.	.
=213	=213	=213	=213
*	*ped	*	*
2.c 2.A 2.E\	(>32aaa\LLL	.	.
.	32aa\	.	.
.	32aaa\	.	.
.	32aa\	.	.
.	32aaa\	.	.
.	32aa\	.	.
.	32aaa\	.	.
.	32aa\	.	.
.	32aaa\	.	.
.	32aa\	.	.
.	32aaa\	.	.
.	32aa\	.	.
.	32aaa\	.	.
.	32aa\	.	.
.	32aaa\	.	.
.	32aa\	.	.
.	32aaa\	.	.
.	32aa\	.	.
.	32aaa\	.	.
.	32aa\	.	.
.	32aaa\	.	.
.	32aa\	.	.
.	32aaa\	.	.
.	32aa\JJJ)	.	.
=214	=214	=214	=214
2.AAA^</	(>32aaa\LLL	.	.
.	32aa\	.	.
.	32aaa\	.	.
.	32aa\	.	.
.	32aaa\	.	.
.	32aa\	.	.
.	32aaa\	.	.
.	32aa\	.	.
.	32aaa\	.	.
.	32aa\	.	.
.	32aaa\	.	.
.	32aa\	.	.
.	32aaa\	.	.
.	32aa\	.	.
.	32aaa\	.	.
.	32aa\	.	.
.	32aaa\	.	.
.	32aa\	.	.
*	*Xped	*	*
.	32aaa\	.	.
.	32aa\	.	.
.	32aaa\	.	.
.	32aa\	.	.
.	32aaa\	.	.
.	32aa\JJJ)	.	.
=215	=215	=215	=215
*	*ped	*	*
[>2.c [>2.A [<2.E\	(>32aaa\LLL	.	.
.	32aa\	.	.
.	32aaa\	.	.
.	32aa\	.	.
.	32aaa\	.	.
.	32aa\	.	.
.	32aaa\	.	.
.	32aa\	.	.
.	32aaa\	.	.
.	32aa\	.	.
.	32aaa\	.	.
.	32aa\	.	.
.	32aaa\	.	.
.	32aa\	.	.
.	32aaa\	.	.
.	32aa\	.	.
.	32aaa\	.	.
.	32aa\	.	.
.	32aaa\	.	.
.	32aa\	.	.
.	32aaa\	.	.
.	32aa\	.	.
.	32aaa\	.	.
.	32aa\JJJ)	.	.
=216	=216	=216	=216
2.c_> 2.A_> 2.E\_<	(>32aaa\LLL	.	.
.	32aa\	.	.
.	32aaa\	.	.
.	32aa\	.	.
.	32aaa\	.	.
.	32aa\	.	.
.	32aaa\	.	.
.	32aa\	.	.
.	32aaa\	.	.
.	32aa\	.	.
.	32aaa\	.	.
.	32aa\	.	.
.	32aaa\	.	.
.	32aa\	.	.
.	32aaa\	.	.
.	32aa\	.	.
.	32aaa\	.	.
.	32aa\	.	.
.	32aaa\	.	.
.	32aa\	.	.
.	32aaa\	.	.
.	32aa\	.	.
.	32aaa\	.	.
.	32aa\JJJ)	.	.
=217	=217	=217	=217
4c] 4A] 4E\]	(>32aaa\LLL	ppp	.
.	32aa\	.	.
.	32aaa\	.	.
.	32aa\	.	.
.	32aaa\	.	.
.	32aa\	.	.
.	32aaa\	.	.
.	32aa\	.	.
4r	32aaa\	.	.
.	32aa\	.	.
.	32aaa\	.	.
.	32aa\	.	.
.	32aaa\	.	.
.	32aa\	.	.
.	32aaa\	.	.
.	32aa\	.	.
4r	32aaa\	.	.
.	32aa\	.	.
.	32aaa\	.	.
.	32aa\	.	.
.	32aaa\	.	.
.	32aa\	.	.
.	32aaa\	.	.
.	32aa\JJJ)	.	.
=218	=218	=218	=218
!	!LO:TX:b:t=morendo.	!	!
2.r	(>32aaa\LLL	.	.
.	32aa\	.	.
.	32aaa\	.	.
.	32aa\	.	.
.	32aaa\	.	.
.	32aa\	.	.
.	32aaa\	.	.
.	32aa\	.	.
.	32aaa\	.	.
.	32aa\	.	.
.	32aaa\	.	.
.	32aa\	.	.
.	32aaa\	.	.
.	32aa\	.	.
.	32aaa\	.	.
.	32aa\	.	.
.	32aaa\	.	.
.	32aa\	.	.
.	32aaa\	.	.
.	32aa\	.	.
.	32aaa\	.	.
.	32aa\	.	.
.	32aaa\	.	.
.	32aa\JJJ)	.	.
=219	=219	=219	=219
2.r	4aaa\	.	.
*	*X8va	*	*
.	4r	.	.
.	4r	.	.
=220	=220	=220	=220
!	!LO:TX:b:t=1	!	!
2.r	2.r	.	.
=221	=221	=221	=221
!	!LO:TX:a:t=loco.	!	!
8AA: 8EE: 8CC: 8AAA':/	8aa: 8ee: 8cc: 8a: 8e':\	ff	.
8r	8r	.	.
4r	4r	.	.
!LO:TX:b:t=FINE.	!	!	!
4r	4r	.	.
==	==	==	==
*-	*-	*-	*-
!!!system-decoration: {(s1,s2)}
!!!RDF**kern: > = above
!!!RDF**kern: < = below
!!!ENC: Anastazja Marusiak
!!!END: 2022-02-28
!!!EED: Antoni Szymański
!!!EST: 2022-03-01
!!!YEC: Copyright 2022 Narodowy Instytut Fryderyka Chopina (https://polishscores.org)
!!!YEM: License CC-BY-4.0 (https://creativecommons.org/licenses/by/4.0)
